;PYCAM-META-DATA: Filename: None
;PYCAM-META-DATA: Timestamp: 2013-03-28 11:49:27.754587
;PYCAM-META-DATA: Version: 0.5.1
;Estimated machine time: 255 minutes
G40 (disable tool radius compensation)
G49 (disable tool length compensation)
G80 (cancel modal motion)
G54 (select coordinate system 1)
G90 (disable incremental moves)
G21 (metric)
G64 (continuous mode with maximum speed)
F200.00000
S1000.00000
;PYCAM_TOOLPATH_SETTINGS: START
;[Bounds]
;maxz = 0.0
;maxx = 140.0
;maxy = 52.0
;minx = -10.0
;miny = -2.0
;minz = -10.0
;
;[Tool]
;torus_radius = 0.25
;speed = 1000.0
;shape = CylindricalCutter
;tool_radius = 3.0
;feedrate = 200.0
;
;[Process]
;generator = PushCutter
;pocketing_type = none
;engrave_offset = 0.0
;milling_style = ignore
;path_direction = x
;step_down = 3.0
;postprocessor = SimpleCutter
;overlap_percent = 0
;material_allowance = 0.5
;
;PYCAM_TOOLPATH_SETTINGS: END
T1 M6
G0 Z1.0000
M3 (start spindle)
G04 P3 (wait for 3 seconds)
 X-10.0000 Y-2.0000
G1 Z0.0000
 X3.8961
G0 Z1.0000
 X126.1039
G1 Z0.0000
 X140.0000
 Y4.0000
 X132.0611
G0 Z1.0000
 X-2.0611
G1 Z0.0000
 X-10.0000
 Y10.0000
 X-3.5000
G0 Z1.0000
 X10.9166
G1 Z0.0000
 X119.0834
G0 Z1.0000
 X133.5000
G1 Z0.0000
 X140.0000
 Y16.0000
 X133.5000
G0 Z1.0000
 X121.5000
G1 Z0.0000
 X8.5000
G0 Z1.0000
 X-3.5000
G1 Z0.0000
 X-10.0000
 Y22.0000
 X-3.5000
G0 Z1.0000
 X8.5000
G1 Z0.0000
 X121.5000
G0 Z1.0000
 X133.5000
G1 Z0.0000
 X140.0000
 Y28.0000
 X133.5000
G0 Z1.0000
 X121.5000
G1 Z0.0000
 X8.5000
G0 Z1.0000
 X-3.5000
G1 Z0.0000
 X-10.0000
 Y34.0000
 X-3.5000
G0 Z1.0000
 X8.5000
G1 Z0.0000
 X121.5000
G0 Z1.0000
 X133.5000
G1 Z0.0000
 X140.0000
 Y40.0000
 X133.5000
G0 Z1.0000
 X119.0834
G1 Z0.0000
 X10.9166
G0 Z1.0000
 X-3.5000
G1 Z0.0000
 X-10.0000
 Y46.0000
 X-2.0611
G0 Z1.0000
 X132.0611
G1 Z0.0000
 X140.0000
 Y52.0000
 X126.1039
G0 Z1.0000
 X3.8961
G1 Z0.0000
 X-10.0000
 Z-2.5000
 X3.8961
G0 Z1.0000
 X126.1039
G1 Z-2.5000
 X140.0000
 Y46.0000
 X132.0611
G0 Z1.0000
 X-2.0611
G1 Z-2.5000
 X-10.0000
 Y40.0000
 X-3.5000
G0 Z1.0000
 X10.9166
G1 Z-2.5000
 X119.0834
G0 Z1.0000
 X133.5000
G1 Z-2.5000
 X140.0000
 Y34.0000
 X133.5000
G0 Z1.0000
 X121.5000
G1 Z-2.5000
 X117.2070
G0 Z1.0000
 X50.2057
G1 Z-2.5000
 X46.5123
G0 Z1.0000
 X18.9447
G1 Z-2.5000
 X8.5000
G0 Z1.0000
 X-3.5000
G1 Z-2.5000
 X-10.0000
 Y28.0000
 X-3.5000
G0 Z1.0000
 X8.5000
G1 Z-2.5000
 X16.1454
G0 Z1.0000
 X45.6599
G1 Z-2.5000
 X47.4097
G0 Z1.0000
 X118.6869
G1 Z-2.5000
 X121.5000
G0 Z1.0000
 X133.5000
G1 Z-2.5000
 X140.0000
 Y22.0000
 X133.5000
G0 Z1.0000
 X121.5000
G1 Z-2.5000
 X115.9477
G0 Z1.0000
 X13.4083
G1 Z-2.5000
 X8.5000
G0 Z1.0000
 X-3.5000
G1 Z-2.5000
 X-10.0000
 Y16.0000
 X-3.5000
G0 Z1.0000
 X8.5000
G1 Z-2.5000
 X11.6631
G0 Z1.0000
 X21.7368
G1 Z-2.5000
 X31.6131
G0 Z1.0000
 X52.1900
G1 Z-2.5000
 X121.5000
G0 Z1.0000
 X133.5000
G1 Z-2.5000
 X140.0000
 Y10.0000
 X133.5000
G0 Z1.0000
 X119.0834
G1 Z-2.5000
 X10.9166
G0 Z1.0000
 X-3.5000
G1 Z-2.5000
 X-10.0000
 Y4.0000
 X-2.0611
G0 Z1.0000
 X132.0611
G1 Z-2.5000
 X140.0000
 Y-2.0000
 X126.1039
G0 Z1.0000
 X3.8961
G1 Z-2.5000
 X-10.0000
 Z-5.0000
 X3.8961
G0 Z1.0000
 X126.1039
G1 Z-5.0000
 X140.0000
 Y4.0000
 X132.0611
G0 Z1.0000
 X-2.0611
G1 Z-5.0000
 X-10.0000
 Y10.0000
 X-3.5000
G0 Z1.0000
 X133.5000
G1 Z-5.0000
 X140.0000
 Y16.0000
 X133.5000
G0 Z1.0000
 X-3.5000
G1 Z-5.0000
 X-10.0000
 Y22.0000
 X-3.5000
G0 Z1.0000
 X133.5000
G1 Z-5.0000
 X140.0000
 Y28.0000
 X133.5000
G0 Z1.0000
 X-3.5000
G1 Z-5.0000
 X-10.0000
 Y34.0000
 X-3.5000
G0 Z1.0000
 X133.5000
G1 Z-5.0000
 X140.0000
 Y40.0000
 X133.5000
G0 Z1.0000
 X-3.5000
G1 Z-5.0000
 X-10.0000
 Y46.0000
 X-2.0611
G0 Z1.0000
 X132.0611
G1 Z-5.0000
 X140.0000
 Y52.0000
 X126.1039
G0 Z1.0000
 X3.8961
G1 Z-5.0000
 X-10.0000
 Z-7.5000
 X3.8961
G0 Z1.0000
 X126.1039
G1 Z-7.5000
 X140.0000
 Y46.0000
 X132.0611
G0 Z1.0000
 X-2.0611
G1 Z-7.5000
 X-10.0000
 Y40.0000
 X-3.5000
G0 Z1.0000
 X133.5000
G1 Z-7.5000
 X140.0000
 Y34.0000
 X133.5000
G0 Z1.0000
 X-3.5000
G1 Z-7.5000
 X-10.0000
 Y28.0000
 X-3.5000
G0 Z1.0000
 X133.5000
G1 Z-7.5000
 X140.0000
 Y22.0000
 X133.5000
G0 Z1.0000
 X-3.5000
G1 Z-7.5000
 X-10.0000
 Y16.0000
 X-3.5000
G0 Z1.0000
 X133.5000
G1 Z-7.5000
 X140.0000
 Y10.0000
 X133.5000
G0 Z1.0000
 X-3.5000
G1 Z-7.5000
 X-10.0000
 Y4.0000
 X-2.0611
G0 Z1.0000
 X132.0611
G1 Z-7.5000
 X140.0000
 Y-2.0000
 X126.1039
G0 Z1.0000
 X3.8961
G1 Z-7.5000
 X-10.0000
 Z-10.0000
 X3.8961
G0 Z1.0000
 X126.1039
G1 Z-10.0000
 X140.0000
 Y4.0000
 X132.0611
G0 Z1.0000
 X-2.0611
G1 Z-10.0000
 X-10.0000
 Y10.0000
 X-3.5000
G0 Z1.0000
 X133.5000
G1 Z-10.0000
 X140.0000
 Y16.0000
 X133.5000
G0 Z1.0000
 X-3.5000
G1 Z-10.0000
 X-10.0000
 Y22.0000
 X-3.5000
G0 Z1.0000
 X133.5000
G1 Z-10.0000
 X140.0000
 Y28.0000
 X133.5000
G0 Z1.0000
 X-3.5000
G1 Z-10.0000
 X-10.0000
 Y34.0000
 X-3.5000
G0 Z1.0000
 X133.5000
G1 Z-10.0000
 X140.0000
 Y40.0000
 X133.5000
G0 Z1.0000
 X-3.5000
G1 Z-10.0000
 X-10.0000
 Y46.0000
 X-2.0611
G0 Z1.0000
 X132.0611
G1 Z-10.0000
 X140.0000
 Y52.0000
 X126.1039
G0 Z1.0000
 X3.8961
G1 Z-10.0000
 X-10.0000
G0 Z1.0000
M5 (stop spindle)
G04 P3 (wait for 3 seconds)
F200.00000
S1000.00000
;PYCAM_TOOLPATH_SETTINGS: START
;[Bounds]
;maxz = 0.0
;maxx = 142.0
;maxy = 54.0
;minx = -12.0
;miny = -4.0
;minz = -10.0
;
;[Tool]
;torus_radius = 0.2
;speed = 1000.0
;shape = ToroidalCutter
;tool_radius = 1.0
;feedrate = 200.0
;
;[Process]
;generator = PushCutter
;pocketing_type = none
;engrave_offset = 0.0
;milling_style = ignore
;path_direction = x
;step_down = 1.5
;postprocessor = ContourCutter
;material_allowance = 0.2
;
;PYCAM_TOOLPATH_SETTINGS: END
T2 M6
G0 Z1.0000
M3 (start spindle)
G04 P3 (wait for 3 seconds)
 X4.6992 Y0.0000
G1 Z0.0000
 X2.0089 Y2.0000
 X0.4257 Y4.0000
 X-0.5730 Y6.0000
 X-1.1436 Y8.0000
 X-1.3464 Y10.0000
 Y40.0000
 X-1.1436 Y42.0000
 X-0.5730 Y44.0000
 X0.4257 Y46.0000
 X2.0089 Y48.0000
 X4.6992 Y50.0000
 X125.3008
 X127.9911 Y48.0000
 X129.5743 Y46.0000
 X130.5730 Y44.0000
 X131.1436 Y42.0000
 X131.3464 Y40.0000
 Y10.0000
 X131.1436 Y8.0000
 X130.5730 Y6.0000
 X129.5743 Y4.0000
 X127.9911 Y2.0000
 X125.3008 Y0.0000
 X4.6992
G0 Z1.0000
 X10.0054 Y8.0000
G1 Z0.0000
 X7.9576 Y10.0000
 X6.9333 Y12.0000
 X6.4588 Y14.0000
 X6.3464 Y16.0000
 Y34.0000
 X6.4588 Y36.0000
 X6.9333 Y38.0000
 X7.9576 Y40.0000
 X10.0054 Y42.0000
 X119.9946
 X122.0424 Y40.0000
 X123.0667 Y38.0000
 X123.5412 Y36.0000
 X123.6536 Y34.0000
 Y16.0000
 X123.5412 Y14.0000
 X123.0667 Y12.0000
 X122.0424 Y10.0000
 X119.9946 Y8.0000
 X10.0054
G0 Z1.0000
 X4.5671 Y50.0000
G1 Z-1.4286
 X1.9367 Y48.0000
 X0.3638 Y46.0000
 X-0.6294 Y44.0000
 X-1.1975 Y42.0000
 X-1.3998 Y40.0000
 X-1.4000 Y38.0000
 Y12.0000
 X-1.3998 Y10.0000
 X-1.1975 Y8.0000
 X-0.6294 Y6.0000
 X0.3638 Y4.0000
 X1.9367 Y2.0000
 X4.5671 Y0.0000
 X125.4329
 X128.0633 Y2.0000
 X129.6362 Y4.0000
 X130.6294 Y6.0000
 X131.1975 Y8.0000
 X131.3998 Y10.0000
 X131.4000 Y12.0000
 Y38.0000
 X131.3998 Y40.0000
 X131.1975 Y42.0000
 X130.6294 Y44.0000
 X129.6362 Y46.0000
 X128.0633 Y48.0000
 X125.4329 Y50.0000
 X4.5671
G0 Z1.0000
 X6.4099 Y48.0000
G1 Z-1.4286
 X3.4832 Y46.0000
 X2.3635 Y44.0000
 X1.6596 Y42.0000
 X6.0645
 X8.1252 Y44.0000
 X12.1937 Y46.0000
 X123.7657 Y48.0000
 X6.4099
G0 Z1.0000
 X10.0967 Y42.0000
G1 Z-1.4286
 X8.0196 Y40.0000
 X6.9898 Y38.0000
 X6.5128 Y36.0000
 X6.4000 Y34.0000
 Y16.0000
 X6.5128 Y14.0000
 X6.9898 Y12.0000
 X8.0196 Y10.0000
 X10.0967 Y8.0000
 X119.9033
 X121.9804 Y10.0000
 X123.0102 Y12.0000
 X123.4872 Y14.0000
 X123.6000 Y16.0000
 Y34.0000
 X123.4872 Y36.0000
 X123.0102 Y38.0000
 X121.9804 Y40.0000
 X119.9033 Y42.0000
 X10.0967
G0 Z1.0000
 X-1.0000 Y38.0000
G1 Z-1.4286
 Y16.0000
 X1.3900 Y14.0000
 X1.0113 Y12.0000
 X1.4033 Y10.0000
 X1.6596 Y8.0000
 X2.3635 Y6.0000
 X3.4832 Y4.0000
 X6.4099 Y2.0000
 X123.7657
 X126.2121 Y4.0000
 X127.7372 Y6.0000
 X121.6675
 X117.3376 Y4.0000
 X12.1937
 X8.1252 Y6.0000
 X6.0645 Y8.0000
 X4.8085 Y10.0000
 X4.0457 Y12.0000
 X3.7398 Y14.0000
 X4.0204 Y16.0000
 X3.9228 Y18.0000
 X3.6006 Y20.0000
 X4.0188 Y22.0000
 X6.0000 Y24.0000
 Y32.0000
 X4.0204 Y34.0000
 X3.7398 Y36.0000
 X4.0457 Y38.0000
 X-1.0000
G0 Z1.0000
 X125.8358
G1 Z-1.4286
 X126.1235 Y36.0000
 X125.9796 Y34.0000
 X124.0000 Y32.0000
 Y24.0000
 X125.9812 Y22.0000
 X126.3994 Y20.0000
 X126.0772 Y18.0000
 X125.9796 Y16.0000
 X126.1235 Y14.0000
 X125.8358 Y12.0000
 X128.9887
 X128.6100 Y14.0000
 X131.0000 Y16.0000
 Y38.0000
 X125.8358
G0 Z1.0000
 X4.5671 Y0.0000
G1 Z-2.8571
 X1.9367 Y2.0000
 X0.3638 Y4.0000
 X-0.6294 Y6.0000
 X-1.1975 Y8.0000
 X-1.3996 Y10.0000
 X-1.4000 Y12.0000
 Y38.0000
 X-1.3996 Y40.0000
 X-1.1975 Y42.0000
 X-0.6294 Y44.0000
 X0.3638 Y46.0000
 X1.9367 Y48.0000
 X4.5671 Y50.0000
 X125.4329
 X128.0633 Y48.0000
 X129.6362 Y46.0000
 X130.6294 Y44.0000
 X131.1975 Y42.0000
 X131.3996 Y40.0000
 X131.4000 Y38.0000
 Y12.0000
 X131.3996 Y10.0000
 X131.1975 Y8.0000
 X130.6294 Y6.0000
 X129.6362 Y4.0000
 X128.0633 Y2.0000
 X125.4329 Y0.0000
 X4.5671
G0 Z1.0000
 X6.5933 Y2.0000
G1 Z-2.8571
 X3.6532 Y4.0000
 X2.4305 Y6.0000
 X1.6512 Y8.0000
 X1.3996 Y10.0000
 X-1.0000 Y12.0000
 Y14.0000
 X0.7655 Y16.0000
 X1.3998 Y18.0000
 X0.6952 Y20.0000
 X-1.0000 Y22.0000
 Y38.0000
 X4.1631
 X3.7190 Y36.0000
 X4.0207 Y34.0000
 X6.0000 Y32.0000
 Y30.0000
 X4.2651 Y28.0000
 X3.6091 Y26.0000
 X3.8091 Y24.0000
 X6.0000 Y22.0000
 Y18.0000
 X4.0207 Y16.0000
 X3.7190 Y14.0000
 X4.1631 Y12.0000
 X4.8209 Y10.0000
 X6.0733 Y8.0000
 X8.1462 Y6.0000
 X12.3790 Y4.0000
 X117.6884
 X121.8866 Y6.0000
 X127.7374
 X126.1025 Y4.0000
 X123.0413 Y2.0000
 X6.5933
G0 Z1.0000
 X10.0967 Y8.0000
G1 Z-2.8571
 X8.0196 Y10.0000
 X6.9898 Y12.0000
 X6.5128 Y14.0000
 X6.4000 Y16.0000
 Y34.0000
 X6.5128 Y36.0000
 X6.9898 Y38.0000
 X8.0196 Y40.0000
 X10.0967 Y42.0000
 X119.9033
 X121.9804 Y40.0000
 X123.0102 Y38.0000
 X123.4872 Y36.0000
 X123.6000 Y34.0000
 Y16.0000
 X123.4872 Y14.0000
 X123.0102 Y12.0000
 X121.9804 Y10.0000
 X119.9033 Y8.0000
 X10.0967
G0 Z1.0000
 X125.8820 Y12.0000
G1 Z-2.8571
 X126.2976 Y14.0000
 X125.9793 Y16.0000
 X124.0000 Y18.0000
 Y22.0000
 X126.1909 Y24.0000
 X126.3909 Y26.0000
 X125.7349 Y28.0000
 X124.0000 Y30.0000
 Y32.0000
 X125.9793 Y34.0000
 X126.2976 Y36.0000
 X125.8820 Y38.0000
 X131.0000
 Y22.0000
 X129.3048 Y20.0000
 X128.6002 Y18.0000
 X129.2345 Y16.0000
 X131.0000 Y14.0000
 Y12.0000
 X125.8820
G0 Z1.0000
 X14.0814 Y16.0000
G1 Z-2.8571
 X13.8918 Y18.0000
 X16.6289 Y24.0000
 X17.0685
 X18.4101 Y22.0000
 X17.8719 Y20.0000
 X20.3426 Y18.0000
 X19.2896 Y16.0000
 X14.0814
G0 Z1.0000
 X34.0314
G1 Z-2.8571
 X33.9166 Y18.0000
 X45.4488 Y20.0000
 X35.1778 Y22.0000
 X35.0498
 X21.2578 Y20.0000
 X20.8179
 X19.2014 Y22.0000
 X20.1215 Y24.0000
 X21.0470 Y26.0000
 X30.6743
 X31.5902 Y28.0000
 X24.5680
 X23.3343 Y30.0000
 X20.2782 Y32.0000
 X45.0396
 X44.2651 Y30.0000
 X38.7567
 X38.1138 Y28.0000
 X38.7978 Y26.0000
 X39.3971
 X40.9558 Y28.0000
 X43.3509
 X42.4367 Y26.0000
 X48.8062
 X49.7173 Y28.0000
 X50.1569
 X51.6747 Y26.0000
 X53.9943
 X55.8140 Y30.0000
 X51.5396 Y32.0000
 X116.2784
 X117.0207 Y30.0000
 X116.3784 Y28.0000
 X97.6657
 X96.4293 Y30.0000
 X93.3786
 X92.7628 Y28.0000
 X92.7374 Y26.0000
 X92.7764 Y24.0000
 X96.2876
 X95.3788 Y22.0000
 X53.4146
 X52.5039 Y20.0000
 X51.2721 Y18.0000
 X47.3263 Y16.0000
 X34.0314
G0 Z1.0000
 X49.8686 Y22.0000
G1 Z-2.8571
 X50.3756
 X49.8686
G0 Z1.0000
 X98.0844
G1 Z-2.8571
 X98.8902 Y24.0000
 X99.8031 Y26.0000
 X100.2428
 X101.8750 Y24.0000
 X105.4643
 X104.5557 Y22.0000
 X98.0844
G0 Z1.0000
 X107.2604
G1 Z-2.8571
 X108.0665 Y24.0000
 X108.9799 Y26.0000
 X109.4197
 X110.9213 Y24.0000
 X114.5523
 X113.6392 Y22.0000
 X107.2604
G0 Z1.0000
 X32.8221 Y24.0000
G1 Z-2.8571
 X33.0747
 X32.8221
G0 Z1.0000
 X38.1145
G1 Z-2.8571
 X38.7523
 X38.1145
G0 Z1.0000
 X50.8969
G1 Z-2.8571
 X51.3764
 X50.8969
G0 Z1.0000
 X87.5691
G1 Z-2.8571
 X87.8665
 X87.5691
G0 Z1.0000
 X17.5412 Y26.0000
G1 Z-2.8571
 X17.9809
 X17.5412
G0 Z1.0000
 X33.3915
G1 Z-2.8571
 X34.2733
 X33.3915
G0 Z1.0000
 X57.0304
G1 Z-2.8571
 X56.5385 Y28.0000
 X56.2535 Y30.0000
 X59.6673
 X60.9054 Y28.0000
 X68.1557
 X72.3674 Y26.0000
 X57.0304
G0 Z1.0000
 X75.4239
G1 Z-2.8571
 X76.0150
 X75.4239
G0 Z1.0000
 X88.3895
G1 Z-2.8571
 X89.4235 Y28.0000
 X91.5526
 X90.6420 Y26.0000
 X88.3895
G0 Z1.0000
 X96.7570
G1 Z-2.8571
 X97.1963
 X96.7570
G0 Z1.0000
 X105.9335
G1 Z-2.8571
 X106.3728
 X105.9335
G0 Z1.0000
 X115.0257
G1 Z-2.8571
 X115.4654
 X115.0257
G0 Z1.0000
 X18.4535 Y28.0000
G1 Z-2.8571
 X18.8932
 X18.4535
G0 Z1.0000
 X34.5301
G1 Z-2.8571
 X36.9025
 X34.5301
G0 Z1.0000
 X37.3423
G1 Z-2.8571
 X37.6740
 X37.3423
G0 Z1.0000
 X91.9921
G1 Z-2.8571
 X92.3233
 X91.9921
G0 Z1.0000
 X19.3659 Y30.0000
G1 Z-2.8571
 X19.8055
 X19.3659
G0 Z1.0000
 X50.6285
G1 Z-2.8571
 X51.0680
 X50.6285
G0 Z1.0000
 X1.6512 Y42.0000
G1 Z-2.8571
 X2.4305 Y44.0000
 X3.6532 Y46.0000
 X6.5933 Y48.0000
 X123.0413
 X12.3790 Y46.0000
 X8.1462 Y44.0000
 X6.0733 Y42.0000
 X1.6512
G0 Z1.0000
 X4.5671 Y50.0000
G1 Z-4.2857
 X1.9367 Y48.0000
 X0.3638 Y46.0000
 X-0.6294 Y44.0000
 X-1.1975 Y42.0000
 X-1.4000 Y40.0000
 Y38.0000
 Y12.0000
 Y10.0000
 X-1.1975 Y8.0000
 X-0.6294 Y6.0000
 X0.3638 Y4.0000
 X1.9367 Y2.0000
 X4.5671 Y0.0000
 X125.4329
 X128.0633 Y2.0000
 X129.6362 Y4.0000
 X130.6294 Y6.0000
 X131.1975 Y8.0000
 X131.4000 Y10.0000
 Y12.0000
 Y38.0000
 Y40.0000
 X131.1975 Y42.0000
 X130.6294 Y44.0000
 X129.6362 Y46.0000
 X128.0633 Y48.0000
 X125.4329 Y50.0000
 X4.5671
G0 Z1.0000
 X6.7536 Y48.0000
G1 Z-4.2857
 X3.7853 Y46.0000
 X2.4357 Y44.0000
 X1.6162 Y42.0000
 X6.0728
 X8.4003 Y44.0000
 X12.7512 Y46.0000
 X123.0910 Y48.0000
 X6.7536
G0 Z1.0000
 X10.0967 Y42.0000
G1 Z-4.2857
 X8.0196 Y40.0000
 X6.9898 Y38.0000
 X6.5128 Y36.0000
 X6.4000 Y34.0000
 Y16.0000
 X6.5128 Y14.0000
 X6.9898 Y12.0000
 X8.0196 Y10.0000
 X10.0967 Y8.0000
 X119.9033
 X121.9804 Y10.0000
 X123.0102 Y12.0000
 X123.4872 Y14.0000
 X123.6000 Y16.0000
 Y34.0000
 X123.4872 Y36.0000
 X123.0102 Y38.0000
 X121.9804 Y40.0000
 X119.9033 Y42.0000
 X10.0967
G0 Z1.0000
 X-1.0000 Y38.0000
G1 Z-4.2857
 Y26.0000
 X0.9720 Y24.0000
 X1.3933 Y22.0000
 X-1.0000 Y20.0000
 Y12.0000
 X1.4000 Y10.0000
 X1.6162 Y8.0000
 X2.4357 Y6.0000
 X3.7853 Y4.0000
 X6.7536 Y2.0000
 X123.0910
 X126.1115 Y4.0000
 X127.6995 Y6.0000
 X121.7872
 X116.9658 Y4.0000
 X12.7512
 X8.4003 Y6.0000
 X6.0728 Y8.0000
 X4.8205 Y10.0000
 X4.1641 Y12.0000
 X3.9525 Y14.0000
 X4.0203 Y16.0000
 X6.0000 Y18.0000
 Y28.0000
 X3.7317 Y30.0000
 X3.6286 Y32.0000
 X4.0203 Y34.0000
 X3.9525 Y36.0000
 X4.1641 Y38.0000
 X-1.0000
G0 Z1.0000
 X125.9479
G1 Z-4.2857
 X126.2197 Y36.0000
 X125.9797 Y34.0000
 X126.3714 Y32.0000
 X126.2683 Y30.0000
 X124.0000 Y28.0000
 Y18.0000
 X125.9797 Y16.0000
 X126.2197 Y14.0000
 X125.9479 Y12.0000
 X131.0000
 Y20.0000
 X128.6067 Y22.0000
 X129.0280 Y24.0000
 X131.0000 Y26.0000
 Y38.0000
 X125.9479
G0 Z1.0000
 X20.2782 Y32.0000
G1 Z-4.2857
 X17.5412 Y26.0000
 X20.1213 Y24.0000
 X19.2012 Y22.0000
 X18.4073 Y20.0000
 X14.8042
 X13.8918 Y18.0000
 X14.0812 Y16.0000
 X19.2898
 X20.3426 Y18.0000
 X21.2578 Y20.0000
 X35.0500 Y22.0000
 X35.1776
 X45.4484 Y20.0000
 X33.9164 Y18.0000
 X34.0312 Y16.0000
 X47.3266
 X51.2721 Y18.0000
 X52.5039 Y20.0000
 X49.8688 Y22.0000
 X50.5721 Y24.0000
 X49.2458 Y26.0000
 X42.4367
 X44.2651 Y30.0000
 X45.0398 Y32.0000
 X20.2782
G0 Z1.0000
 X51.5396
G1 Z-4.2857
 X49.7173 Y28.0000
 X53.1072
 X52.9835 Y26.0000
 X53.3474 Y24.0000
 X52.9751 Y22.0000
 X95.3788
 X90.9424 Y24.0000
 X91.8526 Y26.0000
 X94.6205 Y28.0000
 X95.0533
 X95.1752 Y26.0000
 X95.8482 Y24.0000
 X96.2876
 X98.1051 Y28.0000
 X100.7161
 X99.8031 Y26.0000
 X102.5830
 X103.7339 Y28.0000
 X104.2296
 X104.3516 Y26.0000
 X105.0249 Y24.0000
 X105.4643
 X107.2813 Y28.0000
 X109.8933
 X108.9799 Y26.0000
 X112.0464
 X112.8314 Y28.0000
 X113.3130
 X112.8643 Y26.0000
 X114.1126 Y24.0000
 X114.5523
 X116.3784 Y28.0000
 X117.0209 Y30.0000
 X116.2784 Y32.0000
 X51.5396
G0 Z1.0000
 X21.4731 Y30.0000
G1 Z-4.2857
 X21.4583 Y28.0000
 X20.5869 Y26.0000
 X23.6566
 X22.0795 Y28.0000
 X23.0844 Y30.0000
 X21.4731
G0 Z1.0000
 X40.6971
G1 Z-4.2857
 X39.9066 Y28.0000
 X37.1993 Y26.0000
 X37.5562 Y24.0000
 X38.7521
 X41.9969 Y26.0000
 X41.1947 Y28.0000
 X41.1935 Y30.0000
 X40.6971
G0 Z1.0000
 X53.5248
G1 Z-4.2857
 X54.1101
 X53.5248
G0 Z1.0000
 X58.7727
G1 Z-4.2857
 X59.2774
 X58.7727
G0 Z1.0000
 X95.2297
G1 Z-4.2857
 X96.4291
 X95.2297
G0 Z1.0000
 X25.0075 Y28.0000
G1 Z-4.2857
 X24.0962 Y26.0000
 X30.6743
 X31.5902 Y28.0000
 X25.0075
G0 Z1.0000
 X34.5304
G1 Z-4.2857
 X33.2827 Y26.0000
 X35.2149
 X35.0400 Y28.0000
 X34.5304
G0 Z1.0000
 X57.7309
G1 Z-4.2857
 X58.6564
 X57.7309
G0 Z1.0000
 X61.3446
G1 Z-4.2857
 X60.4375 Y26.0000
 X72.3674
 X68.1555 Y28.0000
 X61.3446
G0 Z1.0000
 X89.4193
G1 Z-4.2857
 X89.7028
 X89.4193
G0 Z1.0000
 X55.2361 Y26.0000
G1 Z-4.2857
 X57.5490
 X55.2361
G0 Z1.0000
 X75.4241
G1 Z-4.2857
 X75.8372
 X75.4241
G0 Z1.0000
 X88.3911
G1 Z-4.2857
 X87.2194 Y24.0000
 X89.7314
 X89.2314 Y26.0000
 X88.3911
G0 Z1.0000
 X16.6289 Y24.0000
G1 Z-4.2857
 X17.0685
 X16.6289
G0 Z1.0000
 X32.8223
G1 Z-4.2857
 X33.0668
 X32.8223
G0 Z1.0000
 X90.1710
G1 Z-4.2857
 X90.5030
 X90.1710
G0 Z1.0000
 X98.8902
G1 Z-4.2857
 X98.0842 Y22.0000
 X104.5557
 X99.3299 Y24.0000
 X98.8902
G0 Z1.0000
 X108.0665
G1 Z-4.2857
 X107.2602 Y22.0000
 X113.6392
 X108.5063 Y24.0000
 X108.0665
G0 Z1.0000
 X15.7165 Y22.0000
G1 Z-4.2857
 X16.1562
 X15.7165
G0 Z1.0000
 X4.5671 Y0.0000
G1 Z-5.7143
 X1.9367 Y2.0000
 X0.3638 Y4.0000
 X-0.6294 Y6.0000
 X-1.1975 Y8.0000
 X-1.4000 Y10.0000
 Y12.0000
 Y38.0000
 Y40.0000
 X-1.1975 Y42.0000
 X-0.6294 Y44.0000
 X0.3638 Y46.0000
 X1.9367 Y48.0000
 X4.5671 Y50.0000
 X125.4329
 X128.0633 Y48.0000
 X129.6362 Y46.0000
 X130.6294 Y44.0000
 X131.1975 Y42.0000
 X131.4000 Y40.0000
 Y38.0000
 Y12.0000
 Y10.0000
 X131.1975 Y8.0000
 X130.6294 Y6.0000
 X129.6362 Y4.0000
 X128.0633 Y2.0000
 X125.4329 Y0.0000
 X4.5671
G0 Z1.0000
 X6.8815 Y2.0000
G1 Z-5.7143
 X3.8734 Y4.0000
 X2.3503 Y6.0000
 X1.6162 Y8.0000
 X1.4000 Y10.0000
 X-1.0000 Y12.0000
 Y24.0000
 X1.3696 Y26.0000
 X1.1364 Y28.0000
 X-1.0000 Y30.0000
 Y38.0000
 X4.4491
 X4.3367 Y36.0000
 Y34.0000
 X5.6633
 X5.7434 Y36.0000
 X6.4129 Y38.0000
 X7.7280 Y40.0000
 X9.4284 Y42.0000
 X120.5716
 X122.2720 Y40.0000
 X123.5871 Y38.0000
 X124.2566 Y36.0000
 X124.3367 Y34.0000
 X125.6633
 Y36.0000
 X125.5509 Y38.0000
 X131.0000
 Y30.0000
 X128.8636 Y28.0000
 X128.6304 Y26.0000
 X131.0000 Y24.0000
 Y12.0000
 X125.5509
 X125.6633 Y14.0000
 Y16.0000
 X50.9687 Y18.0000
 X51.9316 Y20.0000
 X49.6687 Y22.0000
 X50.3605 Y24.0000
 X20.3319
 X19.4013 Y22.0000
 X45.9307 Y20.0000
 X34.2091 Y18.0000
 X34.3800 Y16.0000
 X18.9410
 X19.1119 Y18.0000
 X14.2591
 X14.4300 Y16.0000
 X4.3367
 Y14.0000
 X4.4491 Y12.0000
 X5.1094 Y10.0000
 X6.4846 Y8.0000
 X8.8491 Y6.0000
 X13.3825 Y4.0000
 X116.6175
 X121.1509 Y6.0000
 X127.5771
 X126.1852 Y4.0000
 X123.2067 Y2.0000
 X6.8815
G0 Z1.0000
 X9.4284 Y8.0000
G1 Z-5.7143
 X7.7280 Y10.0000
 X122.2720
 X120.5716 Y8.0000
 X9.4284
G0 Z1.0000
 X54.3060 Y22.0000
G1 Z-5.7143
 X53.5479 Y24.0000
 X57.9529 Y26.0000
 X73.3141
 X68.3554 Y28.0000
 X59.8869 Y30.0000
 X38.5566
 X34.1794 Y28.0000
 X33.0506
 X23.5539 Y30.0000
 X20.6170 Y32.0000
 X116.0016
 X116.8206 Y30.0000
 X112.4804 Y28.0000
 X111.3516
 X96.6489 Y30.0000
 X93.1788
 X89.2043 Y28.0000
 X88.0637 Y26.0000
 X87.0099 Y24.0000
 X113.2637 Y22.0000
 X54.3060
G0 Z1.0000
 X75.1779 Y26.0000
G1 Z-5.7143
 X76.2153
 X75.1779
G0 Z1.0000
 X1.6162 Y42.0000
G1 Z-5.7143
 X2.3503 Y44.0000
 X3.8734 Y46.0000
 X6.8815 Y48.0000
 X123.2067
 X13.3825 Y46.0000
 X8.8491 Y44.0000
 X6.4846 Y42.0000
 X1.6162
G0 Z1.0000
 X4.5671 Y50.0000
G1 Z-7.1429
 X1.9367 Y48.0000
 X0.3638 Y46.0000
 X-0.6294 Y44.0000
 X-1.1975 Y42.0000
 X-1.3996 Y40.0000
 X-1.4000 Y38.0000
 Y12.0000
 X-1.3996 Y10.0000
 X-1.1975 Y8.0000
 X-0.6294 Y6.0000
 X0.3638 Y4.0000
 X1.9367 Y2.0000
 X4.5671 Y0.0000
 X125.4329
 X128.0633 Y2.0000
 X129.6362 Y4.0000
 X130.6294 Y6.0000
 X131.1975 Y8.0000
 X131.3996 Y10.0000
 X131.4000 Y12.0000
 Y38.0000
 X131.3996 Y40.0000
 X131.1975 Y42.0000
 X130.6294 Y44.0000
 X129.6362 Y46.0000
 X128.0633 Y48.0000
 X125.4329 Y50.0000
 X4.5671
G0 Z1.0000
 X6.9552 Y48.0000
G1 Z-7.1429
 X3.9034 Y46.0000
 X2.2626 Y44.0000
 X1.6159 Y42.0000
 X6.4846
 X8.8491 Y44.0000
 X13.3825 Y46.0000
 X123.3591 Y48.0000
 X6.9552
G0 Z1.0000
 X9.4284 Y42.0000
G1 Z-7.1429
 X7.7280 Y40.0000
 X6.4129 Y38.0000
 X5.7434 Y36.0000
 X5.6633 Y34.0000
 X4.3367
 Y36.0000
 X4.4491 Y38.0000
 X-1.0000
 Y34.0000
 X1.2438 Y32.0000
 X1.3271 Y30.0000
 X-1.0000 Y28.0000
 Y12.0000
 X1.3996 Y10.0000
 X1.6159 Y8.0000
 X2.2626 Y6.0000
 X3.9034 Y4.0000
 X6.9552 Y2.0000
 X123.3591
 X126.3058 Y4.0000
 X127.5611 Y6.0000
 X121.1509
 X116.6175 Y4.0000
 X13.3825
 X8.8491 Y6.0000
 X6.4846 Y8.0000
 X5.1094 Y10.0000
 X4.4491 Y12.0000
 X4.3367 Y14.0000
 Y16.0000
 X14.4300
 X14.2591 Y18.0000
 X19.1119
 X18.9410 Y16.0000
 X34.3800
 X34.2091 Y18.0000
 X45.9307 Y20.0000
 X19.4013 Y22.0000
 X20.3319 Y24.0000
 X50.3605
 X49.6687 Y22.0000
 X51.9316 Y20.0000
 X50.9687 Y18.0000
 X125.6633 Y16.0000
 Y14.0000
 X125.5509 Y12.0000
 X131.0000
 Y28.0000
 X128.6729 Y30.0000
 X128.7562 Y32.0000
 X131.0000 Y34.0000
 Y38.0000
 X125.5509
 X125.6633 Y36.0000
 Y34.0000
 X124.3367
 X124.2566 Y36.0000
 X123.5871 Y38.0000
 X122.2720 Y40.0000
 X120.5716 Y42.0000
 X9.4284
G0 Z1.0000
 X20.6170 Y32.0000
G1 Z-7.1429
 X23.5539 Y30.0000
 X33.0506 Y28.0000
 X34.1794
 X38.5566 Y30.0000
 X59.8869
 X68.3554 Y28.0000
 X73.3141 Y26.0000
 X57.9529
 X53.5479 Y24.0000
 X54.3060 Y22.0000
 X113.2637
 X87.0099 Y24.0000
 X88.0637 Y26.0000
 X89.2043 Y28.0000
 X93.1788 Y30.0000
 X96.6489
 X111.3516 Y28.0000
 X112.4804
 X116.8206 Y30.0000
 X116.0016 Y32.0000
 X20.6170
G0 Z1.0000
 X75.1779 Y26.0000
G1 Z-7.1429
 X76.2153
 X75.1779
G0 Z1.0000
 X7.7280 Y10.0000
G1 Z-7.1429
 X9.4284 Y8.0000
 X120.5716
 X122.2720 Y10.0000
 X7.7280
G0 Z1.0000
 X4.5671 Y0.0000
G1 Z-8.5714
 X1.9367 Y2.0000
 X0.3638 Y4.0000
 X-0.6294 Y6.0000
 X-1.1975 Y8.0000
 X-1.3998 Y10.0000
 X-1.4000 Y12.0000
 Y38.0000
 X-1.3998 Y40.0000
 X-1.1975 Y42.0000
 X-0.6294 Y44.0000
 X0.3638 Y46.0000
 X1.9367 Y48.0000
 X4.5671 Y50.0000
 X125.4329
 X128.0633 Y48.0000
 X129.6362 Y46.0000
 X130.6294 Y44.0000
 X131.1975 Y42.0000
 X131.3998 Y40.0000
 X131.4000 Y38.0000
 Y12.0000
 X131.3998 Y10.0000
 X131.1975 Y8.0000
 X130.6294 Y6.0000
 X129.6362 Y4.0000
 X128.0633 Y2.0000
 X125.4329 Y0.0000
 X4.5671
G0 Z1.0000
 X6.8790 Y2.0000
G1 Z-8.5714
 X3.8378 Y4.0000
 X2.2628 Y6.0000
 X1.6161 Y8.0000
 X1.3998 Y10.0000
 X-1.0000 Y12.0000
 Y32.0000
 X1.2606 Y34.0000
 X1.3158 Y36.0000
 X-1.0000 Y38.0000
 X4.4491
 X4.3367 Y36.0000
 Y34.0000
 X5.6633
 X5.7434 Y36.0000
 X6.4129 Y38.0000
 X7.7280 Y40.0000
 X9.4284 Y42.0000
 X120.5716
 X122.2720 Y40.0000
 X123.5871 Y38.0000
 X124.2566 Y36.0000
 X124.3367 Y34.0000
 X125.6633
 Y36.0000
 X125.5509 Y38.0000
 X131.0000
 X128.6842 Y36.0000
 X128.7394 Y34.0000
 X131.0000 Y32.0000
 Y12.0000
 X125.5509
 X125.6633 Y14.0000
 Y16.0000
 X50.9687 Y18.0000
 X51.9316 Y20.0000
 X49.6687 Y22.0000
 X50.3605 Y24.0000
 X20.3319
 X19.4013 Y22.0000
 X45.9307 Y20.0000
 X34.2091 Y18.0000
 X34.3800 Y16.0000
 X18.9410
 X19.1119 Y18.0000
 X14.2591
 X14.4300 Y16.0000
 X4.3367
 Y14.0000
 X4.4491 Y12.0000
 X5.1094 Y10.0000
 X6.4846 Y8.0000
 X8.8491 Y6.0000
 X13.3825 Y4.0000
 X116.6175
 X121.1509 Y6.0000
 X127.6123
 X126.4655 Y4.0000
 X123.5367 Y2.0000
 X6.8790
G0 Z1.0000
 X9.4284 Y8.0000
G1 Z-8.5714
 X7.7280 Y10.0000
 X122.2720
 X120.5716 Y8.0000
 X9.4284
G0 Z1.0000
 X54.3060 Y22.0000
G1 Z-8.5714
 X53.5479 Y24.0000
 X57.9529 Y26.0000
 X73.3141
 X68.3554 Y28.0000
 X59.8869 Y30.0000
 X38.5566
 X34.1794 Y28.0000
 X33.0506
 X23.5539 Y30.0000
 X20.6170 Y32.0000
 X116.0016
 X116.8206 Y30.0000
 X112.4804 Y28.0000
 X111.3516
 X96.6489 Y30.0000
 X93.1788
 X89.2043 Y28.0000
 X88.0637 Y26.0000
 X87.0099 Y24.0000
 X113.2637 Y22.0000
 X54.3060
G0 Z1.0000
 X75.1779 Y26.0000
G1 Z-8.5714
 X76.2153
 X75.1779
G0 Z1.0000
 X1.6161 Y42.0000
G1 Z-8.5714
 X2.2628 Y44.0000
 X3.8378 Y46.0000
 X6.8790 Y48.0000
 X123.5367
 X13.3825 Y46.0000
 X8.8491 Y44.0000
 X6.4846 Y42.0000
 X1.6161
G0 Z1.0000
 X4.5671 Y50.0000
G1 Z-10.0000
 X1.9367 Y48.0000
 X0.3638 Y46.0000
 X-0.6294 Y44.0000
 X-1.1975 Y42.0000
 X-1.4000 Y40.0000
 Y10.0000
 X-1.1975 Y8.0000
 X-0.6294 Y6.0000
 X0.3638 Y4.0000
 X1.9367 Y2.0000
 X4.5671 Y0.0000
 X125.4329
 X128.0633 Y2.0000
 X129.6362 Y4.0000
 X130.6294 Y6.0000
 X131.1975 Y8.0000
 X131.4000 Y10.0000
 Y40.0000
 X131.1975 Y42.0000
 X130.6294 Y44.0000
 X129.6362 Y46.0000
 X128.0633 Y48.0000
 X125.4329 Y50.0000
 X4.5671
G0 Z1.0000
M5 (stop spindle)
G04 P3 (wait for 3 seconds)
F200.00000
S1000.00000
;PYCAM_TOOLPATH_SETTINGS: START
;[Bounds]
;maxz = 0.0
;maxx = 142.5
;maxy = 54.5
;minx = -12.5
;miny = -4.5
;minz = -10.0
;
;[Tool]
;torus_radius = 0.25
;speed = 1000.0
;shape = SphericalCutter
;tool_radius = 0.5
;feedrate = 200.0
;
;[Process]
;generator = DropCutter
;pocketing_type = none
;engrave_offset = 0.0
;milling_style = ignore
;path_direction = x
;step_down = 3.0
;postprocessor = PathAccumulator
;overlap_percent = 60
;material_allowance = 0.0
;
;PYCAM_TOOLPATH_SETTINGS: END
T3 M6
G0 Z1.0000
M3 (start spindle)
G04 P3 (wait for 3 seconds)
 X-12.5000 Y-4.5000
G1 Z-10.0000
 X142.5000
 Y-4.1014
 X-12.5000
 Y-3.7027
 X142.5000
 Y-3.3041
 X-12.5000
 Y-2.9054
 X142.5000
 Y-2.5068
 X-12.5000
 Y-2.1081
 X142.5000
 Y-1.7095
 X-12.5000
 Y-1.3108
 X142.5000
 Y-0.9122
 X-12.5000
 Y-0.5135
 X142.5000
 Y-0.1149
 X122.6562
 X122.6406 Z-0.4514
 X122.6367 Z-0.4437
 X122.6328 Z-0.4369
 X122.6289 Z-0.4308
 X122.6270 Z-0.4280
 X122.6250 Z-0.4252
 X122.6172 Z-0.4152
 X122.6094 Z-0.4062
 X122.5938 Z-0.3906
 X122.5781 Z-0.3770
 X122.5625 Z-0.3648
 X122.5312 Z-0.3435
 X122.5000 Z-0.3250
 X122.4375 Z-0.2936
 X122.3750 Z-0.2670
 X122.2500 Z-0.2232
 X122.1250 Z-0.1876
 X122.0000 Z-0.1577
 X121.8750 Z-0.1320
 X121.7500 Z-0.1097
 X121.6250 Z-0.0902
 X121.5000 Z-0.0732
 X121.3750 Z-0.0584
 X121.2500 Z-0.0455
 X121.1250 Z-0.0345
 X121.0000 Z-0.0297
 X120.1250
 X120.0938 Z-0.0225
 X120.0781 Z-0.0197
 X120.0625 Z-0.0174
 X120.0000 Z-0.0134
 X10.0000
 X9.9688 Z-0.0144
 X9.9531 Z-0.0156
 X9.9375 Z-0.0174
 X9.9062 Z-0.0225
 X9.8906 Z-0.0258
 X9.8828 Z-0.0277
 X9.8789 Z-0.0287
 X9.8750 Z-0.0297
 X9.0000
 X8.8750 Z-0.0345
 X8.7500 Z-0.0455
 X8.6250 Z-0.0584
 X8.5000 Z-0.0732
 X8.3750 Z-0.0902
 X8.2500 Z-0.1097
 X8.1250 Z-0.1320
 X8.0000 Z-0.1577
 X7.8750 Z-0.1876
 X7.7500 Z-0.2232
 X7.6875 Z-0.2439
 X7.6250 Z-0.2670
 X7.5625 Z-0.2936
 X7.5312 Z-0.3085
 X7.5156 Z-0.3166
 X7.5078 Z-0.3208
 X7.5000 Z-0.3250
 X7.4688 Z-0.3435
 X7.4531 Z-0.3538
 X7.4453 Z-0.3592
 X7.4375 Z-0.3648
 X7.4219 Z-0.3770
 X7.4141 Z-0.3836
 X7.4062 Z-0.3906
 X7.3984 Z-0.3981
 X7.3906 Z-0.4062
 X7.3750 Z-0.4252
 X7.3594 Z-0.4514
 X7.3516 Z-0.4727
 X7.3477 Z-10.0000
 X-12.5000
 Y0.2838
 X6.1250
 X6.1562 Z-0.4252
 X6.1641 Z-0.4066
 X6.1719 Z-0.3912
 X6.1797 Z-0.3778
 X6.1836 Z-0.3717
 X6.1875 Z-0.3659
 X6.2031 Z-0.3448
 X6.2188 Z-0.3266
 X6.2344 Z-0.3103
 X6.2422 Z-0.3027
 X6.2500 Z-0.2955
 X6.2812 Z-0.2692
 X6.3125 Z-0.2463
 X6.3438 Z-0.2258
 X6.3750 Z-0.2073
 X6.4375 Z-0.1750
 X6.5000 Z-0.1475
 X6.6250 Z-0.1028
 X6.7500 Z-0.0687
 X6.8125 Z-0.0547
 X6.8750 Z-0.0455
 X7.0000 Z-0.0345
 X7.1250 Z-0.0251
 X7.2500 Z-0.0173
 X7.3750 Z-0.0110
 X7.5000 Z-0.0062
 X7.6250 Z-0.0028
 X7.7500 Z-0.0007
 X7.8750 Z-0.0000
 X122.1250
 X122.2500 Z-0.0007
 X122.3750 Z-0.0028
 X122.5000 Z-0.0062
 X122.6250 Z-0.0110
 X122.7500 Z-0.0173
 X122.8750 Z-0.0251
 X123.0000 Z-0.0345
 X123.0625 Z-0.0398
 X123.1250 Z-0.0455
 X123.2500 Z-0.0687
 X123.3750 Z-0.1028
 X123.4375 Z-0.1236
 X123.5000 Z-0.1475
 X123.5625 Z-0.1750
 X123.5938 Z-0.1905
 X123.6094 Z-0.1987
 X123.6250 Z-0.2073
 X123.6562 Z-0.2258
 X123.6875 Z-0.2463
 X123.7188 Z-0.2692
 X123.7344 Z-0.2818
 X123.7500 Z-0.2955
 X123.7812 Z-0.3266
 X123.7969 Z-0.3448
 X123.8125 Z-0.3659
 X123.8438 Z-0.4252
 X123.8516 Z-0.4506
 X123.8555 Z-0.4708
 X123.8574 Z-0.4923
 X123.8584 Z-10.0000
 X142.5000
 Y0.6824
 X124.7539
 X124.7520 Z-0.4799
 X124.7510 Z-0.4717
 X124.7505 Z-0.4684
 X124.7502 Z-0.4669
 X124.7500 Z-0.4654
 X124.7422 Z-0.4340
 X124.7383 Z-0.4230
 X124.7344 Z-0.4134
 X124.7266 Z-0.3970
 X124.7188 Z-0.3829
 X124.7031 Z-0.3591
 X124.6953 Z-0.3487
 X124.6875 Z-0.3390
 X124.6719 Z-0.3214
 X124.6562 Z-0.3056
 X124.6406 Z-0.2912
 X124.6250 Z-0.2779
 X124.5938 Z-0.2539
 X124.5625 Z-0.2327
 X124.5312 Z-0.2136
 X124.5000 Z-0.1962
 X124.4375 Z-0.1656
 X124.3750 Z-0.1393
 X124.2500 Z-0.0966
 X124.1250 Z-0.0639
 X124.0000 Z-0.0391
 X123.8750 Z-0.0209
 X123.7500 Z-0.0085
 X123.6250 Z-0.0017
 X123.5000 Z0.0000
 X6.5000
 X6.3750 Z-0.0017
 X6.2500 Z-0.0085
 X6.1250 Z-0.0209
 X6.0000 Z-0.0391
 X5.8750 Z-0.0639
 X5.7500 Z-0.0966
 X5.6875 Z-0.1165
 X5.6250 Z-0.1393
 X5.5625 Z-0.1656
 X5.5312 Z-0.1803
 X5.5000 Z-0.1962
 X5.4688 Z-0.2136
 X5.4375 Z-0.2327
 X5.4062 Z-0.2539
 X5.3906 Z-0.2655
 X5.3828 Z-0.2716
 X5.3789 Z-0.2747
 X5.3750 Z-0.2779
 X5.3438 Z-0.3056
 X5.3281 Z-0.3214
 X5.3203 Z-0.3300
 X5.3164 Z-0.3344
 X5.3145 Z-0.3367
 X5.3125 Z-0.3390
 X5.2969 Z-0.3591
 X5.2891 Z-0.3704
 X5.2852 Z-0.3765
 X5.2832 Z-0.3796
 X5.2812 Z-0.3829
 X5.2500 Z-0.4654
 X5.2422 Z-10.0000
 X-12.5000
 Y1.0811
 X4.5000
 X4.5312 Z-0.3776
 X4.5469 Z-0.3457
 X4.5547 Z-0.3322
 X4.5625 Z-0.3199
 X4.5781 Z-0.2977
 X4.5938 Z-0.2781
 X4.6094 Z-0.2604
 X4.6172 Z-0.2522
 X4.6250 Z-0.2443
 X4.6562 Z-0.2157
 X4.6875 Z-0.1908
 X4.7188 Z-0.1688
 X4.7344 Z-0.1587
 X4.7500 Z-0.1491
 X4.7812 Z-0.1314
 X4.7969 Z-0.1232
 X4.8125 Z-0.1154
 X4.8438 Z-0.1017
 X4.8750 Z-0.0908
 X5.0000 Z-0.0594
 X5.1250 Z-0.0357
 X5.2500 Z-0.0185
 X5.3750 Z-0.0071
 X5.5000 Z-0.0011
 X5.6250 Z0.0000
 X124.3750
 X124.5000 Z-0.0011
 X124.6250 Z-0.0071
 X124.7500 Z-0.0185
 X124.8750 Z-0.0357
 X125.0000 Z-0.0594
 X125.0625 Z-0.0740
 X125.0938 Z-0.0820
 X125.1094 Z-0.0863
 X125.1172 Z-0.0885
 X125.1250 Z-0.0908
 X125.1562 Z-0.1017
 X125.1875 Z-0.1154
 X125.2188 Z-0.1314
 X125.2344 Z-0.1400
 X125.2500 Z-0.1491
 X125.2812 Z-0.1688
 X125.3125 Z-0.1908
 X125.3438 Z-0.2157
 X125.3594 Z-0.2295
 X125.3750 Z-0.2443
 X125.4062 Z-0.2781
 X125.4219 Z-0.2977
 X125.4375 Z-0.3199
 X125.4688 Z-0.3776
 X125.4844 Z-0.4226
 X125.4922 Z-0.4621
 X125.4961 Z-10.0000
 X142.5000
 Y1.4797
 X126.0625
 X126.0312 Z-0.4161
 X126.0234 Z-0.3925
 X126.0156 Z-0.3735
 X126.0078 Z-0.3570
 X126.0039 Z-0.3496
 X126.0000 Z-0.3425
 X125.9688 Z-0.2953
 X125.9531 Z-0.2759
 X125.9375 Z-0.2585
 X125.9062 Z-0.2278
 X125.8906 Z-0.2142
 X125.8750 Z-0.2014
 X125.8438 Z-0.1782
 X125.8125 Z-0.1576
 X125.7812 Z-0.1390
 X125.7500 Z-0.1223
 X125.6875 Z-0.0933
 X125.6250 Z-0.0694
 X125.5625 Z-0.0497
 X125.5000 Z-0.0338
 X125.4375 Z-0.0212
 X125.3750 Z-0.0116
 X125.2500 Z-0.0011
 X125.1250 Z0.0000
 X4.8750
 X4.7500 Z-0.0011
 X4.6875 Z-0.0050
 X4.6250 Z-0.0116
 X4.5625 Z-0.0212
 X4.5000 Z-0.0338
 X4.4375 Z-0.0497
 X4.3750 Z-0.0694
 X4.3125 Z-0.0933
 X4.2812 Z-0.1071
 X4.2500 Z-0.1223
 X4.2188 Z-0.1390
 X4.1875 Z-0.1576
 X4.1562 Z-0.1782
 X4.1406 Z-0.1895
 X4.1328 Z-0.1954
 X4.1250 Z-0.2014
 X4.0938 Z-0.2278
 X4.0781 Z-0.2425
 X4.0703 Z-0.2503
 X4.0625 Z-0.2585
 X4.0469 Z-0.2759
 X4.0312 Z-0.2953
 X4.0000 Z-0.3425
 X3.9688 Z-0.4161
 X3.9609 Z-0.4500
 X3.9570 Z-0.4856
 X3.9551 Z-10.0000
 X-12.5000
 Y1.8784
 X3.4062
 X3.4219 Z-0.4100
 X3.4297 Z-0.3878
 X3.4336 Z-0.3782
 X3.4375 Z-0.3694
 X3.4531 Z-0.3393
 X3.4609 Z-0.3263
 X3.4688 Z-0.3144
 X3.4844 Z-0.2929
 X3.4922 Z-0.2831
 X3.5000 Z-0.2738
 X3.5312 Z-0.2408
 X3.5469 Z-0.2262
 X3.5625 Z-0.2126
 X3.5938 Z-0.1881
 X3.6094 Z-0.1769
 X3.6250 Z-0.1664
 X3.6875 Z-0.1295
 X3.7188 Z-0.1136
 X3.7500 Z-0.0992
 X3.8125 Z-0.0743
 X3.8750 Z-0.0537
 X3.9375 Z-0.0370
 X4.0000 Z-0.0237
 X4.1250 Z-0.0062
 X4.2500 Z-0.0000
 X4.3750
 X125.6250
 X125.7500
 X125.8750 Z-0.0062
 X125.9375 Z-0.0135
 X126.0000 Z-0.0237
 X126.0625 Z-0.0370
 X126.1250 Z-0.0537
 X126.1875 Z-0.0743
 X126.2188 Z-0.0862
 X126.2500 Z-0.0992
 X126.3125 Z-0.1295
 X126.3438 Z-0.1470
 X126.3594 Z-0.1564
 X126.3750 Z-0.1664
 X126.4062 Z-0.1881
 X126.4219 Z-0.2000
 X126.4375 Z-0.2126
 X126.4688 Z-0.2408
 X126.4844 Z-0.2566
 X126.5000 Z-0.2738
 X126.5156 Z-0.2929
 X126.5312 Z-0.3144
 X126.5469 Z-0.3393
 X126.5625 Z-0.3694
 X126.5781 Z-0.4100
 X126.5859 Z-0.4403
 X126.5898 Z-0.4643
 X126.5918 Z-0.4887
 X126.5928 Z-10.0000
 X142.5000
 Y2.2770
 X127.1250
 X127.0938 Z-0.4237
 X127.0859 Z-0.3926
 X127.0781 Z-0.3690
 X127.0703 Z-0.3492
 X127.0664 Z-0.3403
 X127.0625 Z-0.3320
 X127.0469 Z-0.3024
 X127.0312 Z-0.2774
 X127.0156 Z-0.2554
 X127.0078 Z-0.2454
 X127.0039 Z-0.2406
 X127.0000 Z-0.2360
 X126.9688 Z-0.2033
 X126.9531 Z-0.1894
 X126.9375 Z-0.1769
 X126.9062 Z-0.1553
 X126.8750 Z-0.1370
 X126.8125 Z-0.1054
 X126.7500 Z-0.0794
 X126.6875 Z-0.0579
 X126.6250 Z-0.0404
 X126.5625 Z-0.0263
 X126.5000 Z-0.0155
 X126.3750 Z-0.0025
 X126.2500 Z0.0000
 X3.7500
 X3.6250 Z-0.0025
 X3.5625 Z-0.0076
 X3.5000 Z-0.0155
 X3.4375 Z-0.0263
 X3.3750 Z-0.0404
 X3.3125 Z-0.0579
 X3.2812 Z-0.0681
 X3.2500 Z-0.0794
 X3.1875 Z-0.1054
 X3.1562 Z-0.1204
 X3.1406 Z-0.1285
 X3.1328 Z-0.1327
 X3.1250 Z-0.1370
 X3.0938 Z-0.1553
 X3.0781 Z-0.1656
 X3.0703 Z-0.1711
 X3.0625 Z-0.1769
 X3.0469 Z-0.1894
 X3.0312 Z-0.2033
 X3.0156 Z-0.2187
 X3.0000 Z-0.2360
 X2.9688 Z-0.2774
 X2.9531 Z-0.3024
 X2.9375 Z-0.3320
 X2.9062 Z-0.4237
 X2.8984 Z-0.4928
 X2.8945 Z-10.0000
 X-12.5000
 Y2.6757
 X2.5312
 X2.5469 Z-0.4258
 X2.5547 Z-0.3941
 X2.5586 Z-0.3815
 X2.5605 Z-0.3757
 X2.5625 Z-0.3702
 X2.5781 Z-0.3329
 X2.5859 Z-0.3173
 X2.5938 Z-0.3032
 X2.6094 Z-0.2780
 X2.6172 Z-0.2667
 X2.6211 Z-0.2612
 X2.6250 Z-0.2560
 X2.6562 Z-0.2184
 X2.6719 Z-0.2021
 X2.6875 Z-0.1871
 X2.7188 Z-0.1601
 X2.7344 Z-0.1480
 X2.7500 Z-0.1367
 X2.7812 Z-0.1161
 X2.8125 Z-0.0978
 X2.8438 Z-0.0817
 X2.8750 Z-0.0673
 X2.9375 Z-0.0436
 X2.9688 Z-0.0339
 X3.0000 Z-0.0255
 X3.0625 Z-0.0125
 X3.0938 Z-0.0078
 X3.1250 Z-0.0042
 X3.2500 Z0.0000
 X126.7500
 X126.8125 Z-0.0003
 X126.8438 Z-0.0017
 X126.8750 Z-0.0042
 X126.9375 Z-0.0125
 X126.9688 Z-0.0184
 X127.0000 Z-0.0255
 X127.0625 Z-0.0436
 X127.0938 Z-0.0547
 X127.1094 Z-0.0608
 X127.1250 Z-0.0673
 X127.1562 Z-0.0817
 X127.1875 Z-0.0978
 X127.2188 Z-0.1161
 X127.2344 Z-0.1260
 X127.2422 Z-0.1313
 X127.2500 Z-0.1367
 X127.2812 Z-0.1601
 X127.2969 Z-0.1731
 X127.3125 Z-0.1871
 X127.3438 Z-0.2184
 X127.3594 Z-0.2363
 X127.3750 Z-0.2560
 X127.3906 Z-0.2780
 X127.4062 Z-0.3032
 X127.4219 Z-0.3329
 X127.4375 Z-0.3702
 X127.4531 Z-0.4258
 X127.4609 Z-10.0000
 X142.5000
 Y3.0743
 X127.8203
 X127.8164 Z-0.4519
 X127.8145 Z-0.4387
 X127.8135 Z-0.4331
 X127.8125 Z-0.4279
 X127.8047 Z-0.3956
 X127.7969 Z-0.3714
 X127.7891 Z-0.3513
 X127.7812 Z-0.3338
 X127.7656 Z-0.3039
 X127.7578 Z-0.2908
 X127.7539 Z-0.2846
 X127.7500 Z-0.2787
 X127.7188 Z-0.2368
 X127.7031 Z-0.2189
 X127.6875 Z-0.2025
 X127.6562 Z-0.1735
 X127.6406 Z-0.1605
 X127.6250 Z-0.1483
 X127.5938 Z-0.1263
 X127.5625 Z-0.1069
 X127.5312 Z-0.0897
 X127.5000 Z-0.0745
 X127.4375 Z-0.0491
 X127.4062 Z-0.0387
 X127.3750 Z-0.0297
 X127.3125 Z-0.0154
 X127.2812 Z-0.0101
 X127.2500 Z-0.0059
 X127.1250 Z0.0000
 X2.8750
 X2.8125 Z-0.0009
 X2.7812 Z-0.0029
 X2.7500 Z-0.0059
 X2.6875 Z-0.0154
 X2.6562 Z-0.0219
 X2.6250 Z-0.0297
 X2.5625 Z-0.0491
 X2.5312 Z-0.0610
 X2.5156 Z-0.0675
 X2.5000 Z-0.0745
 X2.4688 Z-0.0897
 X2.4375 Z-0.1069
 X2.4062 Z-0.1263
 X2.3906 Z-0.1370
 X2.3828 Z-0.1426
 X2.3750 Z-0.1483
 X2.3438 Z-0.1735
 X2.3281 Z-0.1875
 X2.3125 Z-0.2025
 X2.2969 Z-0.2189
 X2.2812 Z-0.2368
 X2.2656 Z-0.2565
 X2.2500 Z-0.2787
 X2.2344 Z-0.3039
 X2.2188 Z-0.3338
 X2.2109 Z-0.3513
 X2.2070 Z-0.3609
 X2.2031 Z-0.3714
 X2.1875 Z-0.4279
 X2.1719 Z-10.0000
 X-12.5000
 Y3.4730
 X1.8125
 X1.8438 Z-0.3726
 X1.8594 Z-0.3347
 X1.8672 Z-0.3190
 X1.8711 Z-0.3117
 X1.8750 Z-0.3047
 X1.9062 Z-0.2571
 X1.9219 Z-0.2373
 X1.9375 Z-0.2194
 X1.9688 Z-0.1879
 X1.9844 Z-0.1739
 X2.0000 Z-0.1608
 X2.0312 Z-0.1373
 X2.0625 Z-0.1166
 X2.0938 Z-0.0983
 X2.1094 Z-0.0899
 X2.1250 Z-0.0821
 X2.1875 Z-0.0550
 X2.2188 Z-0.0439
 X2.2500 Z-0.0341
 X2.3125 Z-0.0186
 X2.3438 Z-0.0127
 X2.3750 Z-0.0079
 X2.5000 Z0.0000
 X127.5000
 X127.5625 Z-0.0018
 X127.5938 Z-0.0043
 X127.6250 Z-0.0079
 X127.6875 Z-0.0186
 X127.7188 Z-0.0257
 X127.7500 Z-0.0341
 X127.8125 Z-0.0550
 X127.8438 Z-0.0677
 X127.8594 Z-0.0747
 X127.8750 Z-0.0821
 X127.9062 Z-0.0983
 X127.9375 Z-0.1166
 X127.9688 Z-0.1373
 X127.9844 Z-0.1487
 X127.9922 Z-0.1546
 X128.0000 Z-0.1608
 X128.0312 Z-0.1879
 X128.0469 Z-0.2030
 X128.0547 Z-0.2110
 X128.0625 Z-0.2194
 X128.0781 Z-0.2373
 X128.0938 Z-0.2571
 X128.1250 Z-0.3047
 X128.1562 Z-0.3726
 X128.1719 Z-0.4302
 X128.1797 Z-10.0000
 X142.5000
 Y3.8716
 X128.5312
 X128.5156 Z-0.4211
 X128.5078 Z-0.3868
 X128.5039 Z-0.3733
 X128.5020 Z-0.3671
 X128.5000 Z-0.3612
 X128.4844 Z-0.3216
 X128.4688 Z-0.2904
 X128.4531 Z-0.2644
 X128.4453 Z-0.2528
 X128.4375 Z-0.2419
 X128.4219 Z-0.2221
 X128.4062 Z-0.2045
 X128.3906 Z-0.1886
 X128.3828 Z-0.1813
 X128.3750 Z-0.1743
 X128.3438 Z-0.1490
 X128.3125 Z-0.1269
 X128.2812 Z-0.1074
 X128.2656 Z-0.0985
 X128.2500 Z-0.0902
 X128.1875 Z-0.0613
 X128.1562 Z-0.0494
 X128.1250 Z-0.0390
 X128.0625 Z-0.0221
 X128.0312 Z-0.0156
 X128.0000 Z-0.0102
 X127.8750 Z-0.0001
 X127.7500 Z0.0000
 X2.2500
 X2.1250 Z-0.0001
 X2.0625 Z-0.0029
 X2.0312 Z-0.0060
 X2.0000 Z-0.0102
 X1.9375 Z-0.0221
 X1.9062 Z-0.0299
 X1.8750 Z-0.0390
 X1.8125 Z-0.0613
 X1.7812 Z-0.0749
 X1.7656 Z-0.0823
 X1.7500 Z-0.0902
 X1.7188 Z-0.1074
 X1.6875 Z-0.1269
 X1.6562 Z-0.1490
 X1.6406 Z-0.1612
 X1.6328 Z-0.1676
 X1.6289 Z-0.1709
 X1.6250 Z-0.1743
 X1.5938 Z-0.2045
 X1.5781 Z-0.2221
 X1.5703 Z-0.2317
 X1.5664 Z-0.2368
 X1.5625 Z-0.2419
 X1.5469 Z-0.2644
 X1.5391 Z-0.2769
 X1.5312 Z-0.2904
 X1.5000 Z-0.3612
 X1.4844 Z-0.4211
 X1.4766 Z-10.0000
 X-12.5000
 Y4.2703
 X1.2461
 X1.2480 Z-0.4693
 X1.2490 Z-0.4578
 X1.2495 Z-0.4530
 X1.2500 Z-0.4488
 X1.2578 Z-0.4035
 X1.2656 Z-0.3739
 X1.2734 Z-0.3503
 X1.2812 Z-0.3303
 X1.2969 Z-0.2966
 X1.3047 Z-0.2821
 X1.3125 Z-0.2686
 X1.3281 Z-0.2444
 X1.3438 Z-0.2229
 X1.3594 Z-0.2036
 X1.3672 Z-0.1946
 X1.3750 Z-0.1860
 X1.4062 Z-0.1552
 X1.4219 Z-0.1415
 X1.4375 Z-0.1288
 X1.4688 Z-0.1061
 X1.4844 Z-0.0959
 X1.5000 Z-0.0863
 X1.5312 Z-0.0692
 X1.5625 Z-0.0544
 X1.5938 Z-0.0416
 X1.6094 Z-0.0359
 X1.6250 Z-0.0307
 X1.6562 Z-0.0217
 X1.6875 Z-0.0142
 X1.7188 Z-0.0084
 X1.7500 Z-0.0042
 X1.8750 Z0.0000
 X128.1250
 X128.1875 Z-0.0001
 X128.2188 Z-0.0014
 X128.2344 Z-0.0026
 X128.2500 Z-0.0042
 X128.2812 Z-0.0084
 X128.3125 Z-0.0142
 X128.3438 Z-0.0217
 X128.3594 Z-0.0260
 X128.3750 Z-0.0307
 X128.4062 Z-0.0416
 X128.4375 Z-0.0544
 X128.4688 Z-0.0692
 X128.4844 Z-0.0775
 X128.4922 Z-0.0818
 X128.5000 Z-0.0863
 X128.5312 Z-0.1061
 X128.5469 Z-0.1170
 X128.5625 Z-0.1288
 X128.5938 Z-0.1552
 X128.6094 Z-0.1699
 X128.6172 Z-0.1778
 X128.6211 Z-0.1819
 X128.6250 Z-0.1860
 X128.6562 Z-0.2229
 X128.6719 Z-0.2444
 X128.6797 Z-0.2561
 X128.6836 Z-0.2623
 X128.6875 Z-0.2686
 X128.7500 Z-0.4488
 X128.7578 Z-10.0000
 X142.5000
 Y4.6689
 X129.0000
 X128.9688 Z-0.3888
 X128.9609 Z-0.3625
 X128.9531 Z-0.3407
 X128.9453 Z-0.3219
 X128.9414 Z-0.3132
 X128.9375 Z-0.3050
 X128.9219 Z-0.2758
 X128.9062 Z-0.2506
 X128.8906 Z-0.2284
 X128.8828 Z-0.2183
 X128.8750 Z-0.2086
 X128.8438 Z-0.1741
 X128.8281 Z-0.1590
 X128.8125 Z-0.1451
 X128.7812 Z-0.1201
 X128.7656 Z-0.1089
 X128.7500 Z-0.0985
 X128.7188 Z-0.0798
 X128.6875 Z-0.0635
 X128.6562 Z-0.0495
 X128.6406 Z-0.0432
 X128.6250 Z-0.0374
 X128.5938 Z-0.0272
 X128.5625 Z-0.0188
 X128.5312 Z-0.0119
 X128.5156 Z-0.0091
 X128.5000 Z-0.0067
 X128.3750 Z0.0000
 X1.6250
 X1.5625 Z-0.0008
 X1.5312 Z-0.0030
 X1.5156 Z-0.0046
 X1.5000 Z-0.0067
 X1.4688 Z-0.0119
 X1.4375 Z-0.0188
 X1.4062 Z-0.0272
 X1.3906 Z-0.0321
 X1.3750 Z-0.0374
 X1.3438 Z-0.0495
 X1.3125 Z-0.0635
 X1.2812 Z-0.0798
 X1.2656 Z-0.0888
 X1.2578 Z-0.0936
 X1.2500 Z-0.0985
 X1.2188 Z-0.1201
 X1.2031 Z-0.1321
 X1.1875 Z-0.1451
 X1.1562 Z-0.1741
 X1.1406 Z-0.1906
 X1.1250 Z-0.2086
 X1.0938 Z-0.2506
 X1.0781 Z-0.2758
 X1.0625 Z-0.3050
 X1.0312 Z-0.3888
 X1.0234 Z-0.4244
 X1.0195 Z-0.4514
 X1.0176 Z-0.4741
 X1.0166 Z-10.0000
 X-12.5000
 Y5.0676
 X0.7812
 X0.7969 Z-0.4063
 X0.8047 Z-0.3760
 X0.8086 Z-0.3634
 X0.8125 Z-0.3520
 X0.8281 Z-0.3139
 X0.8359 Z-0.2978
 X0.8438 Z-0.2832
 X0.8594 Z-0.2571
 X0.8672 Z-0.2453
 X0.8711 Z-0.2396
 X0.8750 Z-0.2342
 X0.9062 Z-0.1953
 X0.9219 Z-0.1784
 X0.9375 Z-0.1630
 X0.9688 Z-0.1355
 X0.9844 Z-0.1233
 X0.9922 Z-0.1175
 X1.0000 Z-0.1119
 X1.0312 Z-0.0914
 X1.0625 Z-0.0736
 X1.0938 Z-0.0582
 X1.1094 Z-0.0512
 X1.1250 Z-0.0448
 X1.1562 Z-0.0335
 X1.1875 Z-0.0239
 X1.2188 Z-0.0161
 X1.2344 Z-0.0128
 X1.2500 Z-0.0098
 X1.3750 Z0.0000
 X13.8750
 X14.0000 Z-0.0002
 X15.0000
 X15.1250 Z-0.0046
 X114.8750
 X115.0000 Z-0.0002
 X116.0000
 X116.1250 Z0.0000
 X128.6250
 X128.6562 Z-0.0003
 X128.6875 Z-0.0020
 X128.7188 Z-0.0052
 X128.7344 Z-0.0073
 X128.7500 Z-0.0098
 X128.7812 Z-0.0161
 X128.8125 Z-0.0239
 X128.8438 Z-0.0335
 X128.8594 Z-0.0389
 X128.8750 Z-0.0448
 X128.9062 Z-0.0582
 X128.9375 Z-0.0736
 X128.9688 Z-0.0914
 X128.9844 Z-0.1013
 X128.9922 Z-0.1065
 X129.0000 Z-0.1119
 X129.0312 Z-0.1355
 X129.0469 Z-0.1487
 X129.0625 Z-0.1630
 X129.0781 Z-0.1784
 X129.0938 Z-0.1953
 X129.1094 Z-0.2137
 X129.1250 Z-0.2342
 X129.1406 Z-0.2571
 X129.1562 Z-0.2832
 X129.1719 Z-0.3139
 X129.1875 Z-0.3520
 X129.2031 Z-0.4063
 X129.2109 Z-0.4543
 X129.2148 Z-10.0000
 X142.5000
 Y5.4662
 X129.4453
 X129.4414 Z-0.4573
 X129.4395 Z-0.4408
 X129.4385 Z-0.4341
 X129.4375 Z-0.4280
 X129.4219 Z-0.3644
 X129.4141 Z-0.3423
 X129.4062 Z-0.3233
 X129.3906 Z-0.2909
 X129.3828 Z-0.2768
 X129.3789 Z-0.2702
 X129.3750 Z-0.2637
 X129.3438 Z-0.2190
 X129.3281 Z-0.2001
 X129.3125 Z-0.1828
 X129.2812 Z-0.1525
 X129.2656 Z-0.1390
 X129.2578 Z-0.1326
 X129.2500 Z-0.1265
 X129.2188 Z-0.1041
 X129.1875 Z-0.0846
 X129.1562 Z-0.0677
 X129.1406 Z-0.0601
 X129.1250 Z-0.0531
 X129.0938 Z-0.0405
 X129.0625 Z-0.0298
 X129.0312 Z-0.0209
 X129.0156 Z-0.0170
 X129.0000 Z-0.0136
 X128.9688 Z-0.0080
 X128.9375 Z-0.0038
 X128.8750 Z-0.0001
 X128.7500 Z0.0000
 X118.0000
 X117.8750 Z-0.0005
 X117.7500 Z-0.0023
 X117.6250 Z-0.0055
 X117.5000 Z-0.0101
 X117.3750 Z-0.0161
 X117.2500 Z-0.0237
 X117.1250 Z-0.0327
 X117.0000 Z-0.0435
 X116.8750 Z-0.0560
 X116.7500 Z-0.0705
 X116.6250 Z-0.0871
 X116.5000 Z-0.1061
 X116.3750 Z-0.1278
 X116.2500 Z-0.1529
 X116.1250 Z-0.1820
 X116.0625 Z-0.1985
 X116.0312 Z-0.2073
 X116.0156 Z-0.2118
 X116.0078 Z-0.2142
 X116.0059 Z-0.2147
 X116.0049 Z-0.2150
 X116.0044 Z-0.2152
 X116.0042 Z-0.2153
 X116.0039
 X116.0000 Z-0.2159
 X115.0000
 X114.9688 Z-0.2176
 X114.9531 Z-0.2198
 X114.9453 Z-0.2212
 X114.9375 Z-0.2228
 X114.9219 Z-0.2268
 X114.9062 Z-0.2318
 X114.8906 Z-0.2378
 X114.8750 Z-0.2449
 X114.8594 Z-0.2531
 X114.8438 Z-0.2627
 X114.8281 Z-0.2738
 X114.8203 Z-0.2799
 X114.8164 Z-0.2832
 X114.8145 Z-0.2848
 X114.8125 Z-0.2865
 X114.7969 Z-0.3014
 X114.7891 Z-0.3097
 X114.7852 Z-0.3141
 X114.7832 Z-0.3164
 X114.7822 Z-0.3175
 X114.7817 Z-0.3181
 X114.7815 Z-0.3184
 X114.7814 Z-0.3186
 X114.7813
 Z-0.3187
 X114.7812
 X114.7500 Z-0.3193
 X15.2193
 X15.2192
 X15.2188 Z-0.3187
 X15.2031 Z-0.3014
 X15.1953 Z-0.2937
 X15.1914 Z-0.2900
 X15.1875 Z-0.2865
 X15.1719 Z-0.2738
 X15.1641 Z-0.2680
 X15.1562 Z-0.2627
 X15.1406 Z-0.2531
 X15.1328 Z-0.2488
 X15.1289 Z-0.2468
 X15.1250 Z-0.2449
 X15.0938 Z-0.2318
 X15.0781 Z-0.2268
 X15.0703 Z-0.2247
 X15.0625 Z-0.2228
 X15.0469 Z-0.2198
 X15.0312 Z-0.2176
 X15.0000 Z-0.2159
 X14.0000
 X13.8750 Z-0.1820
 X13.7500 Z-0.1529
 X13.6250 Z-0.1278
 X13.5000 Z-0.1061
 X13.3750 Z-0.0871
 X13.2500 Z-0.0705
 X13.1250 Z-0.0560
 X13.0000 Z-0.0435
 X12.8750 Z-0.0327
 X12.7500 Z-0.0237
 X12.6250 Z-0.0161
 X12.5000 Z-0.0101
 X12.3750 Z-0.0055
 X12.2500 Z-0.0023
 X12.1250 Z-0.0005
 X12.0000 Z0.0000
 X1.1562
 X1.1250 Z-0.0001
 X1.0938 Z-0.0012
 X1.0625 Z-0.0038
 X1.0312 Z-0.0080
 X1.0156 Z-0.0106
 X1.0000 Z-0.0136
 X0.9688 Z-0.0209
 X0.9375 Z-0.0298
 X0.9062 Z-0.0405
 X0.8906 Z-0.0465
 X0.8750 Z-0.0531
 X0.8438 Z-0.0677
 X0.8125 Z-0.0846
 X0.7812 Z-0.1041
 X0.7656 Z-0.1149
 X0.7578 Z-0.1206
 X0.7500 Z-0.1265
 X0.7188 Z-0.1525
 X0.7031 Z-0.1670
 X0.6953 Z-0.1748
 X0.6875 Z-0.1828
 X0.6719 Z-0.2001
 X0.6562 Z-0.2190
 X0.6250 Z-0.2637
 X0.6094 Z-0.2909
 X0.5938 Z-0.3233
 X0.5859 Z-0.3423
 X0.5781 Z-0.3644
 X0.5625 Z-0.4280
 X0.5469 Z-10.0000
 X-12.5000
 Y5.8649
 X0.3594
 X0.3672 Z-0.4225
 X0.3711 Z-0.4017
 X0.3730 Z-0.3929
 X0.3740 Z-0.3887
 X0.3750 Z-0.3847
 X0.3828 Z-0.3569
 X0.3906 Z-0.3341
 X0.4062 Z-0.2967
 X0.4219 Z-0.2662
 X0.4297 Z-0.2526
 X0.4375 Z-0.2400
 X0.4531 Z-0.2170
 X0.4688 Z-0.1965
 X0.4844 Z-0.1780
 X0.4922 Z-0.1694
 X0.5000 Z-0.1611
 X0.5312 Z-0.1315
 X0.5469 Z-0.1184
 X0.5625 Z-0.1063
 X0.5938 Z-0.0847
 X0.6094 Z-0.0751
 X0.6172 Z-0.0706
 X0.6250 Z-0.0663
 X0.6562 Z-0.0505
 X0.6719 Z-0.0436
 X0.6875 Z-0.0373
 X0.7188 Z-0.0266
 X0.7344 Z-0.0220
 X0.7500 Z-0.0180
 X0.7812 Z-0.0114
 X0.8125 Z-0.0063
 X0.8750 Z-0.0006
 X1.0000 Z0.0000
 X11.0000
 X11.1250 Z-0.0006
 X11.2500 Z-0.0056
 X11.3750 Z-0.0160
 X11.5000 Z-0.0321
 X11.6250 Z-0.0546
 X11.7500 Z-0.0844
 X11.8750 Z-0.1233
 X12.0000 Z-0.1746
 X12.1250 Z-0.2167
 X12.2500 Z-0.2588
 X12.3125 Z-0.2840
 X12.3438 Z-0.2981
 X12.3594 Z-0.3057
 X12.3750 Z-0.3136
 X12.4062 Z-0.3306
 X12.4219 Z-0.3399
 X12.4375 Z-0.3499
 X12.4531 Z-0.3606
 X12.4688 Z-0.3724
 X12.4844 Z-0.3854
 X12.4922 Z-0.3925
 X12.5000 Z-0.4002
 X12.5078 Z-0.4085
 X12.5117 Z-0.4130
 X12.5156 Z-0.4177
 X12.5234 Z-0.4281
 X12.5273 Z-0.4339
 X12.5293 Z-0.4370
 X12.5303 Z-0.4387
 X12.5312 Z-0.4403
 X12.5469 Z-0.4820
 X12.5508 Z-5.0000
 X117.4375
 X117.4531 Z-0.4820
 X117.4570 Z-0.4663
 X117.4590 Z-0.4607
 X117.4609 Z-0.4559
 X117.4648 Z-0.4475
 X117.4668 Z-0.4438
 X117.4688 Z-0.4403
 X117.4766 Z-0.4281
 X117.4844 Z-0.4177
 X117.4922 Z-0.4085
 X117.4961 Z-0.4042
 X117.5000 Z-0.4002
 X117.5312 Z-0.3724
 X117.5469 Z-0.3606
 X117.5625 Z-0.3499
 X117.5938 Z-0.3306
 X117.6250 Z-0.3136
 X117.7500 Z-0.2588
 X117.8750 Z-0.2167
 X118.0000 Z-0.1746
 X118.1250 Z-0.1233
 X118.2500 Z-0.0844
 X118.3750 Z-0.0546
 X118.5000 Z-0.0321
 X118.6250 Z-0.0160
 X118.7500 Z-0.0056
 X118.8750 Z-0.0006
 X119.0000 Z0.0000
 X129.0938
 X129.1094 Z-0.0001
 X129.1250 Z-0.0006
 X129.1562 Z-0.0027
 X129.1875 Z-0.0063
 X129.2188 Z-0.0114
 X129.2344 Z-0.0145
 X129.2422 Z-0.0162
 X129.2500 Z-0.0180
 X129.2812 Z-0.0266
 X129.2969 Z-0.0317
 X129.3125 Z-0.0373
 X129.3438 Z-0.0505
 X129.3594 Z-0.0581
 X129.3672 Z-0.0621
 X129.3750 Z-0.0663
 X129.4062 Z-0.0847
 X129.4219 Z-0.0951
 X129.4375 Z-0.1063
 X129.4688 Z-0.1315
 X129.4844 Z-0.1457
 X129.4922 Z-0.1532
 X129.4961 Z-0.1571
 X129.5000 Z-0.1611
 X129.5312 Z-0.1965
 X129.5469 Z-0.2170
 X129.5547 Z-0.2282
 X129.5586 Z-0.2340
 X129.5625 Z-0.2400
 X129.5781 Z-0.2662
 X129.5859 Z-0.2808
 X129.5938 Z-0.2967
 X129.6250 Z-0.3847
 X129.6328 Z-0.4225
 X129.6367 Z-0.4518
 X129.6387 Z-0.4783
 X129.6396 Z-10.0000
 X142.5000
 Y6.2635
 X129.7812
 X129.7656 Z-0.4460
 X129.7578 Z-0.3988
 X129.7539 Z-0.3822
 X129.7520 Z-0.3748
 X129.7500 Z-0.3678
 X129.7344 Z-0.3223
 X129.7188 Z-0.2873
 X129.7031 Z-0.2582
 X129.6953 Z-0.2452
 X129.6875 Z-0.2331
 X129.6719 Z-0.2109
 X129.6562 Z-0.1910
 X129.6406 Z-0.1729
 X129.6328 Z-0.1645
 X129.6250 Z-0.1565
 X129.5938 Z-0.1276
 X129.5781 Z-0.1148
 X129.5625 Z-0.1030
 X129.5312 Z-0.0819
 X129.5156 Z-0.0725
 X129.5078 Z-0.0681
 X129.5000 Z-0.0638
 X129.4688 Z-0.0485
 X129.4375 Z-0.0355
 X129.4062 Z-0.0247
 X129.3906 Z-0.0201
 X129.3750 Z-0.0160
 X129.3438 Z-0.0093
 X129.3125 Z-0.0044
 X129.2500 Z-0.0000
 X129.1250
 X119.8750
 X119.7500 Z-0.0010
 X119.6250 Z-0.0069
 X119.5000 Z-0.0182
 X119.3750 Z-0.0353
 X119.2500 Z-0.0589
 X119.1250 Z-0.0900
 X119.0625 Z-0.1090
 X119.0000 Z-0.1307
 X118.9375 Z-0.1556
 X118.9062 Z-0.1695
 X118.8750 Z-0.1846
 X118.8125 Z-0.2187
 X118.7812 Z-0.2383
 X118.7656 Z-0.2490
 X118.7578 Z-0.2545
 X118.7500 Z-0.2603
 X118.7188 Z-0.2852
 X118.7031 Z-0.2991
 X118.6953 Z-0.3065
 X118.6875 Z-0.3142
 X118.6719 Z-0.3310
 X118.6641 Z-0.3401
 X118.6562 Z-0.3498
 X118.6484 Z-0.3603
 X118.6406 Z-0.3717
 X118.6250 Z-0.3987
 X118.6094 Z-0.4367
 X118.6016 Z-0.4709
 X118.5977 Z-5.0000
 X11.4062
 X11.3906 Z-0.4367
 X11.3828 Z-0.4154
 X11.3789 Z-0.4067
 X11.3770 Z-0.4026
 X11.3750 Z-0.3987
 X11.3672 Z-0.3844
 X11.3594 Z-0.3717
 X11.3438 Z-0.3498
 X11.3281 Z-0.3310
 X11.3125 Z-0.3142
 X11.2812 Z-0.2852
 X11.2656 Z-0.2723
 X11.2500 Z-0.2603
 X11.1875 Z-0.2187
 X11.1250 Z-0.1846
 X11.0625 Z-0.1556
 X11.0000 Z-0.1307
 X10.8750 Z-0.0900
 X10.7500 Z-0.0589
 X10.6250 Z-0.0353
 X10.5000 Z-0.0182
 X10.3750 Z-0.0069
 X10.2500 Z-0.0010
 X10.1250 Z0.0000
 X0.7656
 X0.7500
 X0.7188 Z-0.0013
 X0.6875 Z-0.0044
 X0.6562 Z-0.0093
 X0.6406 Z-0.0124
 X0.6250 Z-0.0160
 X0.5938 Z-0.0247
 X0.5625 Z-0.0355
 X0.5312 Z-0.0485
 X0.5156 Z-0.0558
 X0.5078 Z-0.0598
 X0.5000 Z-0.0638
 X0.4688 Z-0.0819
 X0.4531 Z-0.0920
 X0.4375 Z-0.1030
 X0.4062 Z-0.1276
 X0.3906 Z-0.1414
 X0.3828 Z-0.1488
 X0.3789 Z-0.1526
 X0.3750 Z-0.1565
 X0.3438 Z-0.1910
 X0.3281 Z-0.2109
 X0.3203 Z-0.2216
 X0.3164 Z-0.2273
 X0.3125 Z-0.2331
 X0.2969 Z-0.2582
 X0.2891 Z-0.2722
 X0.2812 Z-0.2873
 X0.2500 Z-0.3678
 X0.2344 Z-0.4460
 X0.2266 Z-10.0000
 X-12.5000
 Y6.6622
 X0.0938
 X0.1094 Z-0.4153
 X0.1172 Z-0.3798
 X0.1211 Z-0.3657
 X0.1230 Z-0.3592
 X0.1250 Z-0.3530
 X0.1406 Z-0.3114
 X0.1562 Z-0.2784
 X0.1719 Z-0.2506
 X0.1797 Z-0.2381
 X0.1875 Z-0.2264
 X0.2031 Z-0.2049
 X0.2188 Z-0.1856
 X0.2344 Z-0.1680
 X0.2422 Z-0.1598
 X0.2500 Z-0.1520
 X0.2812 Z-0.1238
 X0.2969 Z-0.1113
 X0.3125 Z-0.0997
 X0.3438 Z-0.0791
 X0.3594 Z-0.0699
 X0.3672 Z-0.0656
 X0.3750 Z-0.0614
 X0.4062 Z-0.0464
 X0.4375 Z-0.0338
 X0.4688 Z-0.0233
 X0.4844 Z-0.0189
 X0.5000 Z-0.0149
 X0.5312 Z-0.0085
 X0.5625 Z-0.0038
 X0.6250 Z-0.0000
 X0.7500
 X9.5000
 X9.6250 Z-0.0016
 X9.6875 Z-0.0060
 X9.7500 Z-0.0131
 X9.8125 Z-0.0232
 X9.8750 Z-0.0364
 X9.9375 Z-0.0530
 X9.9688 Z-0.0627
 X10.0000 Z-0.0734
 X10.1250 Z-0.1282
 X10.2500 Z-0.1950
 X10.2812 Z-0.2123
 X10.3125 Z-0.2313
 X10.3438 Z-0.2523
 X10.3594 Z-0.2638
 X10.3672 Z-0.2699
 X10.3711 Z-0.2730
 X10.3750 Z-0.2761
 X10.4062 Z-0.3035
 X10.4219 Z-0.3191
 X10.4297 Z-0.3275
 X10.4336 Z-0.3319
 X10.4355 Z-0.3342
 X10.4375 Z-0.3364
 X10.4531 Z-0.3561
 X10.4609 Z-0.3671
 X10.4648 Z-0.3730
 X10.4668 Z-0.3761
 X10.4688 Z-0.3792
 X10.4766 Z-0.3928
 X10.4805 Z-0.4003
 X10.4844 Z-0.4085
 X10.5000 Z-0.4543
 X10.5078 Z-5.0000
 X119.4922
 X119.4961 Z-0.4776
 X119.4980 Z-0.4640
 X119.4990 Z-0.4589
 X119.4995 Z-0.4566
 X119.5000 Z-0.4543
 X119.5078 Z-0.4276
 X119.5117 Z-0.4175
 X119.5156 Z-0.4085
 X119.5234 Z-0.3928
 X119.5312 Z-0.3792
 X119.5469 Z-0.3561
 X119.5547 Z-0.3459
 X119.5625 Z-0.3364
 X119.5781 Z-0.3191
 X119.5938 Z-0.3035
 X119.6094 Z-0.2893
 X119.6250 Z-0.2761
 X119.7500 Z-0.1950
 X119.8750 Z-0.1282
 X119.9375 Z-0.0982
 X120.0000 Z-0.0734
 X120.0625 Z-0.0530
 X120.1250 Z-0.0364
 X120.1875 Z-0.0232
 X120.2500 Z-0.0131
 X120.3750 Z-0.0016
 X120.5000 Z0.0000
 X129.3594
 X129.3750
 X129.4062 Z-0.0010
 X129.4375 Z-0.0038
 X129.4688 Z-0.0085
 X129.4844 Z-0.0115
 X129.5000 Z-0.0149
 X129.5312 Z-0.0233
 X129.5625 Z-0.0338
 X129.5938 Z-0.0464
 X129.6094 Z-0.0536
 X129.6172 Z-0.0575
 X129.6250 Z-0.0614
 X129.6562 Z-0.0791
 X129.6719 Z-0.0890
 X129.6875 Z-0.0997
 X129.7188 Z-0.1238
 X129.7344 Z-0.1373
 X129.7422 Z-0.1445
 X129.7461 Z-0.1482
 X129.7500 Z-0.1520
 X129.7812 Z-0.1856
 X129.7969 Z-0.2049
 X129.8047 Z-0.2153
 X129.8125 Z-0.2264
 X129.8281 Z-0.2506
 X129.8359 Z-0.2639
 X129.8438 Z-0.2784
 X129.8750 Z-0.3530
 X129.8906 Z-0.4153
 X129.8984 Z-10.0000
 X142.5000
 Y7.0608
 X130.0312
 X130.0156 Z-0.3932
 X130.0078 Z-0.3636
 X130.0039 Z-0.3511
 X130.0020 Z-0.3453
 X130.0000 Z-0.3397
 X129.9844 Z-0.3011
 X129.9688 Z-0.2699
 X129.9531 Z-0.2432
 X129.9453 Z-0.2312
 X129.9375 Z-0.2199
 X129.9219 Z-0.1991
 X129.9062 Z-0.1803
 X129.8906 Z-0.1632
 X129.8828 Z-0.1553
 X129.8750 Z-0.1476
 X129.8438 Z-0.1200
 X129.8281 Z-0.1078
 X129.8125 Z-0.0965
 X129.7812 Z-0.0764
 X129.7656 Z-0.0674
 X129.7578 Z-0.0632
 X129.7500 Z-0.0591
 X129.7188 Z-0.0445
 X129.6875 Z-0.0322
 X129.6562 Z-0.0220
 X129.6406 Z-0.0177
 X129.6250 Z-0.0139
 X129.5938 Z-0.0077
 X129.5625 Z-0.0033
 X129.5000 Z0.0000
 X121.0000
 X120.8750 Z-0.0048
 X120.8125 Z-0.0113
 X120.7500 Z-0.0207
 X120.6875 Z-0.0332
 X120.6250 Z-0.0491
 X120.5625 Z-0.0686
 X120.5312 Z-0.0799
 X120.5000 Z-0.0923
 X120.4375 Z-0.1211
 X120.4062 Z-0.1377
 X120.3906 Z-0.1466
 X120.3750 Z-0.1561
 X120.3438 Z-0.1766
 X120.3281 Z-0.1877
 X120.3125 Z-0.1996
 X120.2812 Z-0.2257
 X120.2656 Z-0.2402
 X120.2578 Z-0.2479
 X120.2500 Z-0.2560
 X120.2188 Z-0.2922
 X120.2031 Z-0.3136
 X120.1875 Z-0.3383
 X120.1719 Z-0.3682
 X120.1641 Z-0.3864
 X120.1562 Z-0.4083
 X120.1484 Z-0.4377
 X120.1445 Z-0.4600
 X120.1426 Z-0.4788
 X120.1416 Z-5.0000
 X9.8750
 X9.8438 Z-0.4083
 X9.8359 Z-0.3864
 X9.8281 Z-0.3682
 X9.8203 Z-0.3525
 X9.8164 Z-0.3452
 X9.8125 Z-0.3383
 X9.7969 Z-0.3136
 X9.7812 Z-0.2922
 X9.7656 Z-0.2732
 X9.7578 Z-0.2644
 X9.7500 Z-0.2560
 X9.7188 Z-0.2257
 X9.6875 Z-0.1996
 X9.6562 Z-0.1766
 X9.6250 Z-0.1561
 X9.5625 Z-0.1211
 X9.5312 Z-0.1060
 X9.5000 Z-0.0923
 X9.4375 Z-0.0686
 X9.3750 Z-0.0491
 X9.3125 Z-0.0332
 X9.2500 Z-0.0207
 X9.1250 Z-0.0048
 X9.0000 Z0.0000
 X0.5000
 X0.4688 Z-0.0008
 X0.4375 Z-0.0033
 X0.4062 Z-0.0077
 X0.3906 Z-0.0105
 X0.3750 Z-0.0139
 X0.3438 Z-0.0220
 X0.3125 Z-0.0322
 X0.2812 Z-0.0445
 X0.2656 Z-0.0515
 X0.2578 Z-0.0552
 X0.2500 Z-0.0591
 X0.2188 Z-0.0764
 X0.2031 Z-0.0860
 X0.1875 Z-0.0965
 X0.1562 Z-0.1200
 X0.1406 Z-0.1333
 X0.1328 Z-0.1403
 X0.1289 Z-0.1439
 X0.1250 Z-0.1476
 X0.0938 Z-0.1803
 X0.0781 Z-0.1991
 X0.0703 Z-0.2092
 X0.0625 Z-0.2199
 X0.0469 Z-0.2432
 X0.0391 Z-0.2561
 X0.0312 Z-0.2699
 X0.0000 Z-0.3397
 X-0.0156 Z-0.3932
 X-0.0234 Z-0.4361
 X-0.0273 Z-0.4803
 X-0.0293 Z-10.0000
 X-12.5000
 Y7.4595
 X-0.1875
 X-0.1562 Z-0.4687
 X-0.1484 Z-0.4087
 X-0.1445 Z-0.3906
 X-0.1406 Z-0.3751
 X-0.1328 Z-0.3492
 X-0.1289 Z-0.3380
 X-0.1270 Z-0.3326
 X-0.1250 Z-0.3275
 X-0.1094 Z-0.2915
 X-0.0938 Z-0.2617
 X-0.0781 Z-0.2362
 X-0.0703 Z-0.2246
 X-0.0625 Z-0.2136
 X-0.0469 Z-0.1934
 X-0.0312 Z-0.1752
 X-0.0156 Z-0.1586
 X-0.0078 Z-0.1508
 X0.0000 Z-0.1433
 X0.0312 Z-0.1164
 X0.0469 Z-0.1044
 X0.0625 Z-0.0934
 X0.0938 Z-0.0737
 X0.1094 Z-0.0649
 X0.1172 Z-0.0608
 X0.1250 Z-0.0568
 X0.1562 Z-0.0425
 X0.1875 Z-0.0305
 X0.2188 Z-0.0207
 X0.2344 Z-0.0165
 X0.2500 Z-0.0129
 X0.2812 Z-0.0069
 X0.3125 Z-0.0028
 X0.3750 Z0.0000
 X8.3750
 X8.5000 Z-0.0006
 X8.5625 Z-0.0037
 X8.6250 Z-0.0096
 X8.6875 Z-0.0184
 X8.7500 Z-0.0302
 X8.8125 Z-0.0453
 X8.8750 Z-0.0639
 X8.9375 Z-0.0867
 X8.9688 Z-0.0998
 X9.0000 Z-0.1142
 X9.0312 Z-0.1301
 X9.0625 Z-0.1477
 X9.0938 Z-0.1672
 X9.1094 Z-0.1778
 X9.1172 Z-0.1834
 X9.1250 Z-0.1891
 X9.1562 Z-0.2137
 X9.1719 Z-0.2273
 X9.1797 Z-0.2345
 X9.1875 Z-0.2420
 X9.2031 Z-0.2579
 X9.2188 Z-0.2753
 X9.2344 Z-0.2946
 X9.2500 Z-0.3163
 X9.2656 Z-0.3415
 X9.2734 Z-0.3560
 X9.2812 Z-0.3722
 X9.2969 Z-0.4142
 X9.3047 Z-0.4469
 X9.3086 Z-0.4770
 X9.3105 Z-5.0000
 X120.6875
 X120.7031 Z-0.4142
 X120.7109 Z-0.3911
 X120.7148 Z-0.3812
 X120.7188 Z-0.3722
 X120.7344 Z-0.3415
 X120.7422 Z-0.3284
 X120.7461 Z-0.3222
 X120.7500 Z-0.3163
 X120.7812 Z-0.2753
 X120.7969 Z-0.2579
 X120.8125 Z-0.2420
 X120.8438 Z-0.2137
 X120.8594 Z-0.2010
 X120.8750 Z-0.1891
 X120.9062 Z-0.1672
 X120.9375 Z-0.1477
 X120.9688 Z-0.1301
 X121.0000 Z-0.1142
 X121.0625 Z-0.0867
 X121.1250 Z-0.0639
 X121.1875 Z-0.0453
 X121.2500 Z-0.0302
 X121.3125 Z-0.0184
 X121.3750 Z-0.0096
 X121.5000 Z-0.0006
 X121.6250 Z0.0000
 X129.6250
 X129.6562 Z-0.0006
 X129.6875 Z-0.0028
 X129.7188 Z-0.0069
 X129.7344 Z-0.0097
 X129.7500 Z-0.0129
 X129.7812 Z-0.0207
 X129.8125 Z-0.0305
 X129.8438 Z-0.0425
 X129.8594 Z-0.0494
 X129.8672 Z-0.0530
 X129.8750 Z-0.0568
 X129.9062 Z-0.0737
 X129.9219 Z-0.0832
 X129.9375 Z-0.0934
 X129.9688 Z-0.1164
 X129.9844 Z-0.1293
 X129.9922 Z-0.1362
 X129.9961 Z-0.1397
 X130.0000 Z-0.1433
 X130.0312 Z-0.1752
 X130.0469 Z-0.1934
 X130.0547 Z-0.2033
 X130.0625 Z-0.2136
 X130.0781 Z-0.2362
 X130.0859 Z-0.2485
 X130.0938 Z-0.2617
 X130.1250 Z-0.3275
 X130.1562 Z-0.4687
 X130.1641 Z-10.0000
 X142.5000
 Y7.8581
 X130.2812
 X130.2656 Z-0.3920
 X130.2578 Z-0.3616
 X130.2539 Z-0.3488
 X130.2520 Z-0.3428
 X130.2500 Z-0.3371
 X130.2344 Z-0.2977
 X130.2188 Z-0.2658
 X130.2031 Z-0.2387
 X130.1953 Z-0.2265
 X130.1875 Z-0.2150
 X130.1719 Z-0.1940
 X130.1562 Z-0.1750
 X130.1406 Z-0.1578
 X130.1328 Z-0.1498
 X130.1250 Z-0.1422
 X130.0938 Z-0.1146
 X130.0781 Z-0.1024
 X130.0625 Z-0.0912
 X130.0312 Z-0.0714
 X130.0156 Z-0.0627
 X130.0078 Z-0.0586
 X130.0000 Z-0.0547
 X129.9688 Z-0.0407
 X129.9375 Z-0.0290
 X129.9062 Z-0.0194
 X129.8906 Z-0.0154
 X129.8750 Z-0.0119
 X129.8438 Z-0.0062
 X129.8125 Z-0.0024
 X129.7500 Z0.0000
 X122.0000
 X121.9375 Z-0.0001
 X121.9062 Z-0.0012
 X121.8750 Z-0.0033
 X121.8125 Z-0.0109
 X121.7812 Z-0.0164
 X121.7500 Z-0.0231
 X121.6875 Z-0.0403
 X121.6562 Z-0.0509
 X121.6406 Z-0.0568
 X121.6250 Z-0.0630
 X121.5938 Z-0.0768
 X121.5625 Z-0.0923
 X121.5312 Z-0.1098
 X121.5000 Z-0.1297
 X121.4375 Z-0.1778
 X121.4062 Z-0.2024
 X121.3906 Z-0.2152
 X121.3828 Z-0.2220
 X121.3789 Z-0.2255
 X121.3750 Z-0.2290
 X121.3438 Z-0.2598
 X121.3281 Z-0.2774
 X121.3203 Z-0.2869
 X121.3164 Z-0.2919
 X121.3125 Z-0.2969
 X121.2969 Z-0.3190
 X121.2891 Z-0.3313
 X121.2852 Z-0.3379
 X121.2812 Z-0.3447
 X121.2734 Z-0.3596
 X121.2656 Z-0.3763
 X121.2500 Z-0.4206
 X121.2422 Z-0.4581
 X121.2383 Z-5.0000
 X8.7656
 X8.7578 Z-0.4581
 X8.7539 Z-0.4365
 X8.7520 Z-0.4281
 X8.7510 Z-0.4242
 X8.7500 Z-0.4206
 X8.7422 Z-0.3960
 X8.7344 Z-0.3763
 X8.7188 Z-0.3447
 X8.7031 Z-0.3190
 X8.6953 Z-0.3076
 X8.6875 Z-0.2969
 X8.6719 Z-0.2774
 X8.6562 Z-0.2598
 X8.6250 Z-0.2290
 X8.5625 Z-0.1778
 X8.5312 Z-0.1521
 X8.5156 Z-0.1405
 X8.5000 Z-0.1297
 X8.4688 Z-0.1098
 X8.4375 Z-0.0923
 X8.4062 Z-0.0768
 X8.3750 Z-0.0630
 X8.3125 Z-0.0403
 X8.2812 Z-0.0310
 X8.2500 Z-0.0231
 X8.1875 Z-0.0109
 X8.1250 Z-0.0033
 X8.0000 Z0.0000
 X0.2500
 X0.2188 Z-0.0004
 X0.1875 Z-0.0024
 X0.1562 Z-0.0062
 X0.1406 Z-0.0088
 X0.1250 Z-0.0119
 X0.0938 Z-0.0194
 X0.0625 Z-0.0290
 X0.0312 Z-0.0407
 X0.0156 Z-0.0474
 X0.0078 Z-0.0509
 X0.0000 Z-0.0547
 X-0.0312 Z-0.0714
 X-0.0469 Z-0.0809
 X-0.0625 Z-0.0912
 X-0.0938 Z-0.1146
 X-0.1094 Z-0.1278
 X-0.1172 Z-0.1348
 X-0.1211 Z-0.1384
 X-0.1250 Z-0.1422
 X-0.1562 Z-0.1750
 X-0.1719 Z-0.1940
 X-0.1797 Z-0.2042
 X-0.1875 Z-0.2150
 X-0.2031 Z-0.2387
 X-0.2109 Z-0.2518
 X-0.2188 Z-0.2658
 X-0.2500 Z-0.3371
 X-0.2656 Z-0.3920
 X-0.2734 Z-0.4365
 X-0.2773 Z-0.4868
 X-0.2793 Z-10.0000
 X-12.5000
 Y8.2568
 X-0.3203
 X-0.3164 Z-0.4443
 X-0.3145 Z-0.4291
 X-0.3135 Z-0.4226
 X-0.3125 Z-0.4167
 X-0.2969 Z-0.3516
 X-0.2891 Z-0.3286
 X-0.2812 Z-0.3086
 X-0.2656 Z-0.2748
 X-0.2578 Z-0.2600
 X-0.2539 Z-0.2530
 X-0.2500 Z-0.2463
 X-0.2188 Z-0.1997
 X-0.2031 Z-0.1801
 X-0.1953 Z-0.1709
 X-0.1875 Z-0.1623
 X-0.1562 Z-0.1312
 X-0.1406 Z-0.1175
 X-0.1328 Z-0.1111
 X-0.1250 Z-0.1050
 X-0.0938 Z-0.0827
 X-0.0781 Z-0.0729
 X-0.0625 Z-0.0638
 X-0.0312 Z-0.0478
 X-0.0156 Z-0.0408
 X-0.0078 Z-0.0375
 X0.0000 Z-0.0344
 X0.0312 Z-0.0234
 X0.0469 Z-0.0187
 X0.0625 Z-0.0146
 X0.0938 Z-0.0080
 X0.1094 Z-0.0054
 X0.1250 Z-0.0034
 X0.2500 Z0.0000
 X7.6875
 X7.7188 Z-0.0005
 X7.7500 Z-0.0021
 X7.8125 Z-0.0085
 X7.8438 Z-0.0134
 X7.8750 Z-0.0195
 X7.9375 Z-0.0353
 X7.9688 Z-0.0453
 X7.9844 Z-0.0507
 X8.0000 Z-0.0566
 X8.0312 Z-0.0695
 X8.0625 Z-0.0841
 X8.0938 Z-0.1006
 X8.1094 Z-0.1096
 X8.1250 Z-0.1192
 X8.1562 Z-0.1402
 X8.1719 Z-0.1518
 X8.1875 Z-0.1642
 X8.2188 Z-0.1917
 X8.2344 Z-0.2072
 X8.2422 Z-0.2154
 X8.2500 Z-0.2239
 X8.2812 Z-0.2627
 X8.2969 Z-0.2856
 X8.3125 Z-0.3120
 X8.3281 Z-0.3437
 X8.3359 Z-0.3626
 X8.3438 Z-0.3848
 X8.3594 Z-0.4572
 X8.3633 Z-5.0000
 X121.6250
 X121.6562 Z-0.3848
 X121.6641 Z-0.3626
 X121.6719 Z-0.3437
 X121.6797 Z-0.3270
 X121.6836 Z-0.3194
 X121.6875 Z-0.3120
 X121.7031 Z-0.2856
 X121.7188 Z-0.2627
 X121.7344 Z-0.2423
 X121.7422 Z-0.2329
 X121.7500 Z-0.2239
 X121.7812 Z-0.1917
 X121.7969 Z-0.1774
 X121.8125 Z-0.1642
 X121.8438 Z-0.1402
 X121.8594 Z-0.1294
 X121.8750 Z-0.1192
 X121.9062 Z-0.1006
 X121.9375 Z-0.0841
 X121.9688 Z-0.0695
 X122.0000 Z-0.0566
 X122.0625 Z-0.0353
 X122.0938 Z-0.0268
 X122.1250 Z-0.0195
 X122.1875 Z-0.0085
 X122.2500 Z-0.0021
 X122.3750 Z0.0000
 X129.8125
 X129.8438 Z-0.0007
 X129.8594 Z-0.0018
 X129.8750 Z-0.0034
 X129.9062 Z-0.0080
 X129.9219 Z-0.0110
 X129.9375 Z-0.0146
 X129.9688 Z-0.0234
 X129.9844 Z-0.0286
 X129.9922 Z-0.0314
 X130.0000 Z-0.0344
 X130.0312 Z-0.0478
 X130.0469 Z-0.0554
 X130.0625 Z-0.0638
 X130.0938 Z-0.0827
 X130.1094 Z-0.0934
 X130.1172 Z-0.0991
 X130.1250 Z-0.1050
 X130.1562 Z-0.1312
 X130.1719 Z-0.1460
 X130.1797 Z-0.1540
 X130.1875 Z-0.1623
 X130.2031 Z-0.1801
 X130.2188 Z-0.1997
 X130.2500 Z-0.2463
 X130.2656 Z-0.2748
 X130.2812 Z-0.3086
 X130.2891 Z-0.3286
 X130.2969 Z-0.3516
 X130.3125 Z-0.4167
 X130.3281 Z-10.0000
 X142.5000
 Y8.6554
 X130.3750
 X130.3438 Z-0.3686
 X130.3281 Z-0.3210
 X130.3203 Z-0.3020
 X130.3164 Z-0.2932
 X130.3125 Z-0.2848
 X130.2969 Z-0.2549
 X130.2812 Z-0.2291
 X130.2656 Z-0.2064
 X130.2578 Z-0.1960
 X130.2539 Z-0.1910
 X130.2500 Z-0.1861
 X130.2188 Z-0.1511
 X130.2031 Z-0.1358
 X130.1875 Z-0.1218
 X130.1562 Z-0.0970
 X130.1406 Z-0.0860
 X130.1328 Z-0.0809
 X130.1250 Z-0.0759
 X130.0938 Z-0.0580
 X130.0781 Z-0.0501
 X130.0625 Z-0.0429
 X130.0312 Z-0.0304
 X130.0156 Z-0.0250
 X130.0078 Z-0.0225
 X130.0000 Z-0.0202
 X129.9688 Z-0.0121
 X129.9375 Z-0.0062
 X129.8750 Z-0.0003
 X129.7500 Z0.0000
 X122.6875
 X122.6562 Z-0.0001
 X122.6250 Z-0.0011
 X122.5625 Z-0.0064
 X122.5312 Z-0.0107
 X122.5000 Z-0.0162
 X122.4375 Z-0.0308
 X122.4062 Z-0.0400
 X122.3750 Z-0.0506
 X122.3438 Z-0.0627
 X122.3125 Z-0.0764
 X122.2812 Z-0.0919
 X122.2656 Z-0.1003
 X122.2500 Z-0.1093
 X122.2188 Z-0.1291
 X122.2031 Z-0.1399
 X122.1875 Z-0.1515
 X122.1562 Z-0.1771
 X122.1406 Z-0.1913
 X122.1328 Z-0.1989
 X122.1289 Z-0.2027
 X122.1250 Z-0.2067
 X122.0938 Z-0.2418
 X122.0781 Z-0.2621
 X122.0703 Z-0.2732
 X122.0664 Z-0.2790
 X122.0625 Z-0.2850
 X122.0469 Z-0.3113
 X122.0391 Z-0.3262
 X122.0352 Z-0.3342
 X122.0312 Z-0.3427
 X122.0000 Z-0.4536
 X121.9922 Z-5.0000
 X8.0039
 X8.0020 Z-0.4734
 X8.0010 Z-0.4622
 X8.0005 Z-0.4577
 X8.0000 Z-0.4536
 X7.9922 Z-0.4111
 X7.9883 Z-0.3963
 X7.9844 Z-0.3835
 X7.9766 Z-0.3615
 X7.9688 Z-0.3427
 X7.9531 Z-0.3113
 X7.9453 Z-0.2976
 X7.9375 Z-0.2850
 X7.9219 Z-0.2621
 X7.9062 Z-0.2418
 X7.8906 Z-0.2235
 X7.8828 Z-0.2149
 X7.8750 Z-0.2067
 X7.8438 Z-0.1771
 X7.8125 Z-0.1515
 X7.7812 Z-0.1291
 X7.7656 Z-0.1189
 X7.7500 Z-0.1093
 X7.7188 Z-0.0919
 X7.6875 Z-0.0764
 X7.6562 Z-0.0627
 X7.6250 Z-0.0506
 X7.5625 Z-0.0308
 X7.5312 Z-0.0229
 X7.5000 Z-0.0162
 X7.4375 Z-0.0064
 X7.3750 Z-0.0011
 X7.2500 Z0.0000
 X0.1562
 X0.1406
 X0.1250 Z-0.0003
 X0.0938 Z-0.0022
 X0.0625 Z-0.0062
 X0.0312 Z-0.0121
 X0.0156 Z-0.0159
 X0.0078 Z-0.0180
 X0.0000 Z-0.0202
 X-0.0312 Z-0.0304
 X-0.0469 Z-0.0364
 X-0.0625 Z-0.0429
 X-0.0938 Z-0.0580
 X-0.1094 Z-0.0666
 X-0.1172 Z-0.0712
 X-0.1250 Z-0.0759
 X-0.1562 Z-0.0970
 X-0.1719 Z-0.1089
 X-0.1875 Z-0.1218
 X-0.2031 Z-0.1358
 X-0.2188 Z-0.1511
 X-0.2344 Z-0.1677
 X-0.2500 Z-0.1861
 X-0.2812 Z-0.2291
 X-0.2969 Z-0.2549
 X-0.3125 Z-0.2848
 X-0.3438 Z-0.3686
 X-0.3594 Z-0.4548
 X-0.3672 Z-10.0000
 X-12.5000
 Y9.0541
 X-0.4062
 X-0.3906 Z-0.3883
 X-0.3828 Z-0.3586
 X-0.3789 Z-0.3460
 X-0.3770 Z-0.3402
 X-0.3750 Z-0.3345
 X-0.3594 Z-0.2955
 X-0.3438 Z-0.2639
 X-0.3281 Z-0.2369
 X-0.3203 Z-0.2248
 X-0.3125 Z-0.2133
 X-0.2969 Z-0.1923
 X-0.2812 Z-0.1734
 X-0.2656 Z-0.1562
 X-0.2578 Z-0.1482
 X-0.2500 Z-0.1405
 X-0.2188 Z-0.1129
 X-0.2031 Z-0.1007
 X-0.1875 Z-0.0894
 X-0.1562 Z-0.0695
 X-0.1406 Z-0.0607
 X-0.1328 Z-0.0565
 X-0.1250 Z-0.0526
 X-0.0938 Z-0.0384
 X-0.0781 Z-0.0322
 X-0.0625 Z-0.0266
 X-0.0312 Z-0.0172
 X-0.0156 Z-0.0133
 X0.0000 Z-0.0099
 X0.1250 Z0.0000
 X6.9375
 X7.0000 Z-0.0005
 X7.0625 Z-0.0046
 X7.0938 Z-0.0084
 X7.1250 Z-0.0132
 X7.1875 Z-0.0266
 X7.2188 Z-0.0351
 X7.2500 Z-0.0450
 X7.2812 Z-0.0563
 X7.3125 Z-0.0691
 X7.3438 Z-0.0837
 X7.3594 Z-0.0916
 X7.3750 Z-0.1001
 X7.4062 Z-0.1186
 X7.4219 Z-0.1288
 X7.4375 Z-0.1396
 X7.4688 Z-0.1635
 X7.4844 Z-0.1767
 X7.4922 Z-0.1837
 X7.4961 Z-0.1873
 X7.5000 Z-0.1909
 X7.5312 Z-0.2230
 X7.5469 Z-0.2413
 X7.5547 Z-0.2511
 X7.5586 Z-0.2563
 X7.5625 Z-0.2615
 X7.5781 Z-0.2843
 X7.5859 Z-0.2969
 X7.5938 Z-0.3105
 X7.6016 Z-0.3253
 X7.6094 Z-0.3418
 X7.6250 Z-0.3821
 X7.6406 Z-0.4503
 X7.6445 Z-5.0000
 X122.3438
 X122.3594 Z-0.4503
 X122.3672 Z-0.4094
 X122.3711 Z-0.3948
 X122.3730 Z-0.3883
 X122.3750 Z-0.3821
 X122.3828 Z-0.3604
 X122.3906 Z-0.3418
 X122.4062 Z-0.3105
 X122.4219 Z-0.2843
 X122.4297 Z-0.2725
 X122.4375 Z-0.2615
 X122.4531 Z-0.2413
 X122.4688 Z-0.2230
 X122.4844 Z-0.2063
 X122.4922 Z-0.1984
 X122.5000 Z-0.1909
 X122.5312 Z-0.1635
 X122.5625 Z-0.1396
 X122.5938 Z-0.1186
 X122.6094 Z-0.1091
 X122.6250 Z-0.1001
 X122.6562 Z-0.0837
 X122.6875 Z-0.0691
 X122.7188 Z-0.0563
 X122.7500 Z-0.0450
 X122.8125 Z-0.0266
 X122.8438 Z-0.0193
 X122.8750 Z-0.0132
 X122.9375 Z-0.0046
 X123.0000 Z-0.0005
 X123.1250 Z0.0000
 X129.8750
 X129.9062
 X129.9375 Z-0.0014
 X129.9688 Z-0.0046
 X129.9844 Z-0.0070
 X129.9922 Z-0.0084
 X130.0000 Z-0.0099
 X130.0312 Z-0.0172
 X130.0469 Z-0.0216
 X130.0625 Z-0.0266
 X130.0938 Z-0.0384
 X130.1094 Z-0.0452
 X130.1172 Z-0.0488
 X130.1250 Z-0.0526
 X130.1562 Z-0.0695
 X130.1719 Z-0.0790
 X130.1875 Z-0.0894
 X130.2188 Z-0.1129
 X130.2344 Z-0.1261
 X130.2422 Z-0.1332
 X130.2461 Z-0.1368
 X130.2500 Z-0.1405
 X130.2812 Z-0.1734
 X130.2969 Z-0.1923
 X130.3047 Z-0.2025
 X130.3125 Z-0.2133
 X130.3281 Z-0.2369
 X130.3359 Z-0.2499
 X130.3438 Z-0.2639
 X130.3750 Z-0.3345
 X130.3906 Z-0.3883
 X130.3984 Z-0.4304
 X130.4023 Z-0.4687
 X130.4043 Z-10.0000
 X142.5000
 Y9.4527
 X130.4453
 X130.4414 Z-0.4384
 X130.4395 Z-0.4244
 X130.4385 Z-0.4183
 X130.4375 Z-0.4127
 X130.4219 Z-0.3494
 X130.4141 Z-0.3267
 X130.4062 Z-0.3070
 X130.3906 Z-0.2734
 X130.3828 Z-0.2587
 X130.3789 Z-0.2518
 X130.3750 Z-0.2451
 X130.3438 Z-0.1988
 X130.3281 Z-0.1792
 X130.3125 Z-0.1615
 X130.2812 Z-0.1306
 X130.2656 Z-0.1170
 X130.2578 Z-0.1106
 X130.2500 Z-0.1044
 X130.2188 Z-0.0823
 X130.2031 Z-0.0724
 X130.1875 Z-0.0634
 X130.1562 Z-0.0475
 X130.1406 Z-0.0405
 X130.1328 Z-0.0372
 X130.1250 Z-0.0341
 X130.0938 Z-0.0232
 X130.0781 Z-0.0185
 X130.0625 Z-0.0145
 X130.0312 Z-0.0079
 X130.0156 Z-0.0053
 X130.0000 Z-0.0033
 X129.8750 Z0.0000
 X123.2812
 X123.2656 Z-0.0002
 X123.2500 Z-0.0007
 X123.2188 Z-0.0029
 X123.1875 Z-0.0066
 X123.1562 Z-0.0118
 X123.1406 Z-0.0150
 X123.1250 Z-0.0186
 X123.0938 Z-0.0270
 X123.0625 Z-0.0372
 X123.0312 Z-0.0492
 X123.0156 Z-0.0560
 X123.0000 Z-0.0632
 X122.9688 Z-0.0794
 X122.9531 Z-0.0885
 X122.9375 Z-0.0981
 X122.9062 Z-0.1197
 X122.8906 Z-0.1316
 X122.8828 Z-0.1380
 X122.8750 Z-0.1445
 X122.8438 Z-0.1735
 X122.8281 Z-0.1899
 X122.8203 Z-0.1986
 X122.8125 Z-0.2078
 X122.7969 Z-0.2276
 X122.7812 Z-0.2496
 X122.7656 Z-0.2747
 X122.7500 Z-0.3037
 X122.7422 Z-0.3204
 X122.7344 Z-0.3391
 X122.7188 Z-0.3865
 X122.7109 Z-0.4209
 X122.7070 Z-0.4461
 X122.7051 Z-0.4651
 X122.7041 Z-0.4806
 X122.7036 Z-5.0000
 X7.2969
 X7.2891 Z-0.4209
 X7.2852 Z-0.4021
 X7.2812 Z-0.3865
 X7.2734 Z-0.3606
 X7.2656 Z-0.3391
 X7.2578 Z-0.3204
 X7.2539 Z-0.3119
 X7.2500 Z-0.3037
 X7.2188 Z-0.2496
 X7.2031 Z-0.2276
 X7.1953 Z-0.2175
 X7.1875 Z-0.2078
 X7.1562 Z-0.1735
 X7.1406 Z-0.1584
 X7.1328 Z-0.1513
 X7.1250 Z-0.1445
 X7.0938 Z-0.1197
 X7.0625 Z-0.0981
 X7.0312 Z-0.0794
 X7.0156 Z-0.0710
 X7.0000 Z-0.0632
 X6.9688 Z-0.0492
 X6.9375 Z-0.0372
 X6.9062 Z-0.0270
 X6.8906 Z-0.0226
 X6.8750 Z-0.0186
 X6.8438 Z-0.0118
 X6.8125 Z-0.0066
 X6.7500 Z-0.0007
 X6.6250 Z0.0000
 X0.0625
 X0.0312 Z-0.0007
 X0.0156 Z-0.0017
 X0.0000 Z-0.0033
 X-0.0312 Z-0.0079
 X-0.0469 Z-0.0109
 X-0.0625 Z-0.0145
 X-0.0938 Z-0.0232
 X-0.1094 Z-0.0284
 X-0.1172 Z-0.0312
 X-0.1250 Z-0.0341
 X-0.1562 Z-0.0475
 X-0.1719 Z-0.0551
 X-0.1875 Z-0.0634
 X-0.2188 Z-0.0823
 X-0.2344 Z-0.0929
 X-0.2422 Z-0.0986
 X-0.2500 Z-0.1044
 X-0.2812 Z-0.1306
 X-0.2969 Z-0.1454
 X-0.3047 Z-0.1532
 X-0.3125 Z-0.1615
 X-0.3281 Z-0.1792
 X-0.3438 Z-0.1988
 X-0.3750 Z-0.2451
 X-0.3906 Z-0.2734
 X-0.4062 Z-0.3070
 X-0.4141 Z-0.3267
 X-0.4219 Z-0.3494
 X-0.4375 Z-0.4127
 X-0.4531 Z-10.0000
 X-12.5000
 Y9.8514
 X-0.5000
 X-0.4688 Z-0.3660
 X-0.4531 Z-0.3192
 X-0.4453 Z-0.3004
 X-0.4414 Z-0.2917
 X-0.4375 Z-0.2834
 X-0.4219 Z-0.2537
 X-0.4062 Z-0.2280
 X-0.3906 Z-0.2054
 X-0.3828 Z-0.1951
 X-0.3789 Z-0.1901
 X-0.3750 Z-0.1852
 X-0.3438 Z-0.1503
 X-0.3281 Z-0.1351
 X-0.3125 Z-0.1212
 X-0.2812 Z-0.0965
 X-0.2656 Z-0.0856
 X-0.2578 Z-0.0804
 X-0.2500 Z-0.0755
 X-0.2188 Z-0.0577
 X-0.2031 Z-0.0498
 X-0.1875 Z-0.0426
 X-0.1562 Z-0.0301
 X-0.1406 Z-0.0248
 X-0.1328 Z-0.0223
 X-0.1250 Z-0.0200
 X-0.0938 Z-0.0120
 X-0.0625 Z-0.0061
 X0.0000 Z-0.0002
 X0.1250 Z0.0000
 X6.4688
 X6.5000 Z-0.0001
 X6.5312 Z-0.0014
 X6.5625 Z-0.0041
 X6.5938 Z-0.0083
 X6.6094 Z-0.0110
 X6.6250 Z-0.0141
 X6.6562 Z-0.0215
 X6.6875 Z-0.0305
 X6.7188 Z-0.0414
 X6.7344 Z-0.0475
 X6.7500 Z-0.0541
 X6.7812 Z-0.0689
 X6.8125 Z-0.0860
 X6.8438 Z-0.1056
 X6.8594 Z-0.1166
 X6.8672 Z-0.1223
 X6.8750 Z-0.1283
 X6.9062 Z-0.1546
 X6.9219 Z-0.1693
 X6.9297 Z-0.1772
 X6.9375 Z-0.1853
 X6.9531 Z-0.2028
 X6.9688 Z-0.2221
 X6.9844 Z-0.2434
 X7.0000 Z-0.2676
 X7.0156 Z-0.2954
 X7.0234 Z-0.3112
 X7.0312 Z-0.3287
 X7.0391 Z-0.3486
 X7.0430 Z-0.3597
 X7.0469 Z-0.3718
 X7.0625 Z-0.4437
 X7.0664 Z-5.0000
 X122.9336
 X122.9355 Z-0.4614
 X122.9365 Z-0.4517
 X122.9375 Z-0.4437
 X122.9453 Z-0.4008
 X122.9531 Z-0.3718
 X122.9609 Z-0.3486
 X122.9688 Z-0.3287
 X122.9844 Z-0.2954
 X122.9922 Z-0.2809
 X122.9961 Z-0.2741
 X123.0000 Z-0.2676
 X123.0312 Z-0.2221
 X123.0469 Z-0.2028
 X123.0625 Z-0.1853
 X123.0938 Z-0.1546
 X123.1094 Z-0.1410
 X123.1172 Z-0.1345
 X123.1250 Z-0.1283
 X123.1562 Z-0.1056
 X123.1875 Z-0.0860
 X123.2188 Z-0.0689
 X123.2344 Z-0.0612
 X123.2500 Z-0.0541
 X123.2812 Z-0.0414
 X123.3125 Z-0.0305
 X123.3438 Z-0.0215
 X123.3594 Z-0.0176
 X123.3750 Z-0.0141
 X123.4062 Z-0.0083
 X123.4375 Z-0.0041
 X123.5000 Z-0.0001
 X123.6250 Z0.0000
 X129.9844
 X130.0000 Z-0.0002
 X130.0312 Z-0.0022
 X130.0625 Z-0.0061
 X130.0938 Z-0.0120
 X130.1094 Z-0.0157
 X130.1172 Z-0.0178
 X130.1250 Z-0.0200
 X130.1562 Z-0.0301
 X130.1719 Z-0.0361
 X130.1875 Z-0.0426
 X130.2188 Z-0.0577
 X130.2344 Z-0.0662
 X130.2422 Z-0.0707
 X130.2500 Z-0.0755
 X130.2812 Z-0.0965
 X130.2969 Z-0.1083
 X130.3125 Z-0.1212
 X130.3438 Z-0.1503
 X130.3594 Z-0.1670
 X130.3750 Z-0.1852
 X130.4062 Z-0.2280
 X130.4219 Z-0.2537
 X130.4375 Z-0.2834
 X130.4688 Z-0.3660
 X130.4844 Z-0.4477
 X130.4922 Z-10.0000
 X142.5000
 Y10.2500
 X130.5000
 X130.4688 Z-0.3260
 X130.4531 Z-0.2886
 X130.4453 Z-0.2726
 X130.4375 Z-0.2579
 X130.4219 Z-0.2316
 X130.4062 Z-0.2085
 X130.3906 Z-0.1879
 X130.3828 Z-0.1784
 X130.3750 Z-0.1693
 X130.3438 Z-0.1369
 X130.3281 Z-0.1227
 X130.3125 Z-0.1097
 X130.2812 Z-0.0866
 X130.2656 Z-0.0764
 X130.2578 Z-0.0716
 X130.2500 Z-0.0670
 X130.2188 Z-0.0504
 X130.2031 Z-0.0431
 X130.1875 Z-0.0365
 X130.1562 Z-0.0250
 X130.1406 Z-0.0202
 X130.1328 Z-0.0180
 X130.1250 Z-0.0159
 X130.0938 Z-0.0089
 X130.0625 Z-0.0039
 X130.0000 Z0.0000
 X123.7500
 X123.7188 Z-0.0004
 X123.6875 Z-0.0022
 X123.6562 Z-0.0055
 X123.6406 Z-0.0077
 X123.6250 Z-0.0103
 X123.5938 Z-0.0166
 X123.5625 Z-0.0246
 X123.5312 Z-0.0343
 X123.5156 Z-0.0398
 X123.5000 Z-0.0458
 X123.4688 Z-0.0592
 X123.4375 Z-0.0748
 X123.4062 Z-0.0928
 X123.3906 Z-0.1028
 X123.3828 Z-0.1081
 X123.3750 Z-0.1135
 X123.3438 Z-0.1374
 X123.3281 Z-0.1508
 X123.3125 Z-0.1652
 X123.2969 Z-0.1809
 X123.2812 Z-0.1979
 X123.2656 Z-0.2167
 X123.2578 Z-0.2268
 X123.2500 Z-0.2374
 X123.2344 Z-0.2607
 X123.2188 Z-0.2874
 X123.2031 Z-0.3190
 X123.1875 Z-0.3588
 X123.1719 Z-0.4176
 X123.1641 Z-0.4919
 X123.1602 Z-5.0000
 X6.8438
 X6.8281 Z-0.4176
 X6.8203 Z-0.3842
 X6.8164 Z-0.3708
 X6.8145 Z-0.3646
 X6.8125 Z-0.3588
 X6.7969 Z-0.3190
 X6.7891 Z-0.3025
 X6.7812 Z-0.2874
 X6.7656 Z-0.2607
 X6.7578 Z-0.2487
 X6.7539 Z-0.2430
 X6.7500 Z-0.2374
 X6.7188 Z-0.1979
 X6.7031 Z-0.1809
 X6.6875 Z-0.1652
 X6.6562 Z-0.1374
 X6.6406 Z-0.1251
 X6.6328 Z-0.1192
 X6.6250 Z-0.1135
 X6.5938 Z-0.0928
 X6.5625 Z-0.0748
 X6.5312 Z-0.0592
 X6.5156 Z-0.0523
 X6.5000 Z-0.0458
 X6.4688 Z-0.0343
 X6.4375 Z-0.0246
 X6.4062 Z-0.0166
 X6.3906 Z-0.0132
 X6.3750 Z-0.0103
 X6.2500 Z0.0000
 X0.0000
 X-0.0312 Z-0.0010
 X-0.0469 Z-0.0022
 X-0.0625 Z-0.0039
 X-0.0938 Z-0.0089
 X-0.1094 Z-0.0121
 X-0.1172 Z-0.0139
 X-0.1250 Z-0.0159
 X-0.1562 Z-0.0250
 X-0.1719 Z-0.0305
 X-0.1875 Z-0.0365
 X-0.2188 Z-0.0504
 X-0.2344 Z-0.0583
 X-0.2422 Z-0.0626
 X-0.2500 Z-0.0670
 X-0.2812 Z-0.0866
 X-0.2969 Z-0.0977
 X-0.3125 Z-0.1097
 X-0.3438 Z-0.1369
 X-0.3594 Z-0.1524
 X-0.3750 Z-0.1693
 X-0.4062 Z-0.2085
 X-0.4219 Z-0.2316
 X-0.4375 Z-0.2579
 X-0.4688 Z-0.3260
 X-0.4844 Z-0.3760
 X-0.4922 Z-0.4120
 X-0.4961 Z-0.4376
 X-0.4980 Z-0.4558
 X-0.4990 Z-0.4688
 X-0.4995 Z-0.4779
 X-0.4998 Z-0.4844
 X-0.4999 Z-0.4890
 Z-0.4922
 X-0.5000 Z-0.4945
 Z-0.4961
 Z-10.0000
 X-12.5000
 Y10.6486
 X-0.5000
 X-0.4688 Z-0.3260
 X-0.4531 Z-0.2886
 X-0.4453 Z-0.2726
 X-0.4375 Z-0.2579
 X-0.4219 Z-0.2316
 X-0.4062 Z-0.2085
 X-0.3906 Z-0.1879
 X-0.3828 Z-0.1784
 X-0.3750 Z-0.1693
 X-0.3438 Z-0.1369
 X-0.3281 Z-0.1227
 X-0.3125 Z-0.1097
 X-0.2812 Z-0.0866
 X-0.2656 Z-0.0764
 X-0.2578 Z-0.0716
 X-0.2500 Z-0.0670
 X-0.2188 Z-0.0504
 X-0.2031 Z-0.0431
 X-0.1875 Z-0.0365
 X-0.1562 Z-0.0250
 X-0.1406 Z-0.0202
 X-0.1328 Z-0.0180
 X-0.1250 Z-0.0159
 X-0.0938 Z-0.0089
 X-0.0625 Z-0.0039
 X0.0000 Z0.0000
 X6.0000
 X6.0625 Z-0.0009
 X6.0938 Z-0.0032
 X6.1094 Z-0.0049
 X6.1250 Z-0.0070
 X6.1562 Z-0.0124
 X6.1875 Z-0.0193
 X6.2188 Z-0.0279
 X6.2344 Z-0.0329
 X6.2500 Z-0.0383
 X6.2812 Z-0.0505
 X6.3125 Z-0.0647
 X6.3438 Z-0.0811
 X6.3594 Z-0.0903
 X6.3672 Z-0.0951
 X6.3750 Z-0.1001
 X6.4062 Z-0.1219
 X6.4219 Z-0.1340
 X6.4375 Z-0.1471
 X6.4688 Z-0.1765
 X6.4844 Z-0.1932
 X6.4922 Z-0.2021
 X6.5000 Z-0.2114
 X6.5312 Z-0.2542
 X6.5469 Z-0.2798
 X6.5625 Z-0.3099
 X6.5781 Z-0.3469
 X6.5859 Z-0.3698
 X6.5938 Z-0.3982
 X6.6016 Z-0.4391
 X6.6055 Z-0.4817
 X6.6074 Z-5.0000
 X123.3750
 X123.4062 Z-0.3982
 X123.4141 Z-0.3698
 X123.4219 Z-0.3469
 X123.4297 Z-0.3273
 X123.4336 Z-0.3184
 X123.4375 Z-0.3099
 X123.4531 Z-0.2798
 X123.4688 Z-0.2542
 X123.4844 Z-0.2316
 X123.4922 Z-0.2213
 X123.5000 Z-0.2114
 X123.5312 Z-0.1765
 X123.5469 Z-0.1612
 X123.5625 Z-0.1471
 X123.5938 Z-0.1219
 X123.6094 Z-0.1106
 X123.6250 Z-0.1001
 X123.6562 Z-0.0811
 X123.6875 Z-0.0647
 X123.7188 Z-0.0505
 X123.7344 Z-0.0441
 X123.7500 Z-0.0383
 X123.7812 Z-0.0279
 X123.8125 Z-0.0193
 X123.8438 Z-0.0124
 X123.8594 Z-0.0095
 X123.8750 Z-0.0070
 X124.0000 Z0.0000
 X130.0000
 X130.0312 Z-0.0010
 X130.0469 Z-0.0022
 X130.0625 Z-0.0039
 X130.0938 Z-0.0089
 X130.1094 Z-0.0121
 X130.1172 Z-0.0139
 X130.1250 Z-0.0159
 X130.1562 Z-0.0250
 X130.1719 Z-0.0305
 X130.1875 Z-0.0365
 X130.2188 Z-0.0504
 X130.2344 Z-0.0583
 X130.2422 Z-0.0626
 X130.2500 Z-0.0670
 X130.2812 Z-0.0866
 X130.2969 Z-0.0977
 X130.3125 Z-0.1097
 X130.3438 Z-0.1369
 X130.3594 Z-0.1524
 X130.3750 Z-0.1693
 X130.4062 Z-0.2085
 X130.4219 Z-0.2316
 X130.4375 Z-0.2579
 X130.4688 Z-0.3260
 X130.4844 Z-0.3760
 X130.4922 Z-0.4120
 X130.4961 Z-0.4376
 X130.4980 Z-0.4558
 X130.4990 Z-0.4688
 X130.4995 Z-0.4779
 X130.4998 Z-0.4844
 X130.4999 Z-0.4890
 Z-0.4922
 X130.5000 Z-0.4945
 Z-0.4961
 Z-10.0000
 X142.5000
 Y11.0473
 X130.5000
 X130.4688 Z-0.3260
 X130.4531 Z-0.2886
 X130.4453 Z-0.2726
 X130.4375 Z-0.2579
 X130.4219 Z-0.2316
 X130.4062 Z-0.2085
 X130.3906 Z-0.1879
 X130.3828 Z-0.1784
 X130.3750 Z-0.1693
 X130.3438 Z-0.1369
 X130.3281 Z-0.1227
 X130.3125 Z-0.1097
 X130.2812 Z-0.0866
 X130.2656 Z-0.0764
 X130.2578 Z-0.0716
 X130.2500 Z-0.0670
 X130.2188 Z-0.0504
 X130.2031 Z-0.0431
 X130.1875 Z-0.0365
 X130.1562 Z-0.0250
 X130.1406 Z-0.0202
 X130.1328 Z-0.0180
 X130.1250 Z-0.0159
 X130.0938 Z-0.0089
 X130.0625 Z-0.0039
 X130.0000 Z0.0000
 X124.1875
 X124.1562 Z-0.0002
 X124.1406 Z-0.0009
 X124.1250 Z-0.0021
 X124.0938 Z-0.0057
 X124.0625 Z-0.0111
 X124.0312 Z-0.0184
 X124.0156 Z-0.0228
 X124.0000 Z-0.0278
 X123.9688 Z-0.0392
 X123.9531 Z-0.0457
 X123.9375 Z-0.0528
 X123.9062 Z-0.0690
 X123.8906 Z-0.0781
 X123.8750 Z-0.0877
 X123.8438 Z-0.1077
 X123.8281 Z-0.1187
 X123.8125 Z-0.1307
 X123.7812 Z-0.1573
 X123.7656 Z-0.1723
 X123.7578 Z-0.1802
 X123.7539 Z-0.1843
 X123.7520 Z-0.1864
 X123.7500 Z-0.1885
 X123.7188 Z-0.2260
 X123.7031 Z-0.2478
 X123.6953 Z-0.2598
 X123.6914 Z-0.2660
 X123.6875 Z-0.2726
 X123.6719 Z-0.3013
 X123.6641 Z-0.3177
 X123.6602 Z-0.3266
 X123.6562 Z-0.3360
 X123.6250 Z-0.4755
 X123.6172 Z-5.0000
 X6.3760
 X6.3755 Z-0.4866
 X6.3752 Z-0.4803
 X6.3750 Z-0.4755
 X6.3672 Z-0.4145
 X6.3633 Z-0.3969
 X6.3594 Z-0.3820
 X6.3516 Z-0.3570
 X6.3438 Z-0.3360
 X6.3281 Z-0.3013
 X6.3203 Z-0.2863
 X6.3125 Z-0.2726
 X6.2969 Z-0.2478
 X6.2812 Z-0.2260
 X6.2656 Z-0.2063
 X6.2578 Z-0.1972
 X6.2500 Z-0.1885
 X6.2188 Z-0.1573
 X6.2031 Z-0.1435
 X6.1875 Z-0.1307
 X6.1562 Z-0.1077
 X6.1406 Z-0.0973
 X6.1250 Z-0.0877
 X6.0938 Z-0.0690
 X6.0781 Z-0.0606
 X6.0625 Z-0.0528
 X6.0312 Z-0.0392
 X6.0156 Z-0.0332
 X6.0000 Z-0.0278
 X5.9688 Z-0.0184
 X5.9375 Z-0.0111
 X5.9062 Z-0.0057
 X5.8750 Z-0.0021
 X5.7500 Z0.0000
 X0.0000
 X-0.0312 Z-0.0010
 X-0.0469 Z-0.0022
 X-0.0625 Z-0.0039
 X-0.0938 Z-0.0089
 X-0.1094 Z-0.0121
 X-0.1172 Z-0.0139
 X-0.1250 Z-0.0159
 X-0.1562 Z-0.0250
 X-0.1719 Z-0.0305
 X-0.1875 Z-0.0365
 X-0.2188 Z-0.0504
 X-0.2344 Z-0.0583
 X-0.2422 Z-0.0626
 X-0.2500 Z-0.0670
 X-0.2812 Z-0.0866
 X-0.2969 Z-0.0977
 X-0.3125 Z-0.1097
 X-0.3438 Z-0.1369
 X-0.3594 Z-0.1524
 X-0.3750 Z-0.1693
 X-0.4062 Z-0.2085
 X-0.4219 Z-0.2316
 X-0.4375 Z-0.2579
 X-0.4688 Z-0.3260
 X-0.4844 Z-0.3760
 X-0.4922 Z-0.4120
 X-0.4961 Z-0.4376
 X-0.4980 Z-0.4558
 X-0.4990 Z-0.4688
 X-0.4995 Z-0.4779
 X-0.4998 Z-0.4844
 X-0.4999 Z-0.4890
 Z-0.4922
 X-0.5000 Z-0.4945
 Z-0.4961
 Z-10.0000
 X-12.5000
 Y11.4459
 X-0.5000
 X-0.4688 Z-0.3260
 X-0.4531 Z-0.2886
 X-0.4453 Z-0.2726
 X-0.4375 Z-0.2579
 X-0.4219 Z-0.2316
 X-0.4062 Z-0.2085
 X-0.3906 Z-0.1879
 X-0.3828 Z-0.1784
 X-0.3750 Z-0.1693
 X-0.3438 Z-0.1369
 X-0.3281 Z-0.1227
 X-0.3125 Z-0.1097
 X-0.2812 Z-0.0866
 X-0.2656 Z-0.0764
 X-0.2578 Z-0.0716
 X-0.2500 Z-0.0670
 X-0.2188 Z-0.0504
 X-0.2031 Z-0.0431
 X-0.1875 Z-0.0365
 X-0.1562 Z-0.0250
 X-0.1406 Z-0.0202
 X-0.1328 Z-0.0180
 X-0.1250 Z-0.0159
 X-0.0938 Z-0.0089
 X-0.0625 Z-0.0039
 X0.0000 Z0.0000
 X5.6875
 X5.7188 Z-0.0004
 X5.7344 Z-0.0012
 X5.7500 Z-0.0025
 X5.7812 Z-0.0063
 X5.8125 Z-0.0121
 X5.8438 Z-0.0197
 X5.8594 Z-0.0242
 X5.8750 Z-0.0293
 X5.9062 Z-0.0410
 X5.9219 Z-0.0477
 X5.9375 Z-0.0550
 X5.9688 Z-0.0715
 X5.9844 Z-0.0808
 X5.9922 Z-0.0858
 X6.0000 Z-0.0909
 X6.0312 Z-0.1135
 X6.0469 Z-0.1262
 X6.0625 Z-0.1399
 X6.0781 Z-0.1548
 X6.0938 Z-0.1711
 X6.1094 Z-0.1890
 X6.1172 Z-0.1985
 X6.1250 Z-0.2086
 X6.1562 Z-0.2553
 X6.1719 Z-0.2839
 X6.1875 Z-0.3182
 X6.2188 Z-0.4330
 X6.2266 Z-5.0000
 X123.7500
 X123.7812 Z-0.4330
 X123.7891 Z-0.3914
 X123.7969 Z-0.3622
 X123.8047 Z-0.3385
 X123.8086 Z-0.3280
 X123.8125 Z-0.3182
 X123.8281 Z-0.2839
 X123.8438 Z-0.2553
 X123.8594 Z-0.2306
 X123.8672 Z-0.2193
 X123.8711 Z-0.2139
 X123.8750 Z-0.2086
 X123.9062 Z-0.1711
 X123.9219 Z-0.1548
 X123.9375 Z-0.1399
 X123.9688 Z-0.1135
 X123.9844 Z-0.1017
 X123.9922 Z-0.0962
 X124.0000 Z-0.0909
 X124.0312 Z-0.0715
 X124.0469 Z-0.0629
 X124.0625 Z-0.0550
 X124.0938 Z-0.0410
 X124.1094 Z-0.0349
 X124.1250 Z-0.0293
 X124.1562 Z-0.0197
 X124.1875 Z-0.0121
 X124.2188 Z-0.0063
 X124.2500 Z-0.0025
 X124.3750 Z0.0000
 X130.0000
 X130.0312 Z-0.0010
 X130.0469 Z-0.0022
 X130.0625 Z-0.0039
 X130.0938 Z-0.0089
 X130.1094 Z-0.0121
 X130.1172 Z-0.0139
 X130.1250 Z-0.0159
 X130.1562 Z-0.0250
 X130.1719 Z-0.0305
 X130.1875 Z-0.0365
 X130.2188 Z-0.0504
 X130.2344 Z-0.0583
 X130.2422 Z-0.0626
 X130.2500 Z-0.0670
 X130.2812 Z-0.0866
 X130.2969 Z-0.0977
 X130.3125 Z-0.1097
 X130.3438 Z-0.1369
 X130.3594 Z-0.1524
 X130.3750 Z-0.1693
 X130.4062 Z-0.2085
 X130.4219 Z-0.2316
 X130.4375 Z-0.2579
 X130.4688 Z-0.3260
 X130.4844 Z-0.3760
 X130.4922 Z-0.4120
 X130.4961 Z-0.4376
 X130.4980 Z-0.4558
 X130.4990 Z-0.4688
 X130.4995 Z-0.4779
 X130.4998 Z-0.4844
 X130.4999 Z-0.4890
 Z-0.4922
 X130.5000 Z-0.4945
 Z-0.4961
 Z-10.0000
 X142.5000
 Y11.8446
 X130.5000
 X130.4688 Z-0.3260
 X130.4531 Z-0.2886
 X130.4453 Z-0.2726
 X130.4375 Z-0.2579
 X130.4219 Z-0.2316
 X130.4062 Z-0.2085
 X130.3906 Z-0.1879
 X130.3828 Z-0.1784
 X130.3750 Z-0.1693
 X130.3438 Z-0.1369
 X130.3281 Z-0.1227
 X130.3125 Z-0.1097
 X130.2812 Z-0.0866
 X130.2656 Z-0.0764
 X130.2578 Z-0.0716
 X130.2500 Z-0.0670
 X130.2188 Z-0.0504
 X130.2031 Z-0.0431
 X130.1875 Z-0.0365
 X130.1562 Z-0.0250
 X130.1406 Z-0.0202
 X130.1328 Z-0.0180
 X130.1250 Z-0.0159
 X130.0938 Z-0.0089
 X130.0625 Z-0.0039
 X130.0000 Z0.0000
 X124.4375
 X124.4062 Z-0.0006
 X124.3906 Z-0.0015
 X124.3750 Z-0.0029
 X124.3438 Z-0.0071
 X124.3125 Z-0.0130
 X124.2812 Z-0.0209
 X124.2656 Z-0.0256
 X124.2500 Z-0.0308
 X124.2188 Z-0.0429
 X124.2031 Z-0.0498
 X124.1875 Z-0.0572
 X124.1562 Z-0.0742
 X124.1406 Z-0.0837
 X124.1328 Z-0.0887
 X124.1250 Z-0.0939
 X124.0938 Z-0.1170
 X124.0781 Z-0.1300
 X124.0625 Z-0.1441
 X124.0469 Z-0.1594
 X124.0312 Z-0.1761
 X124.0156 Z-0.1944
 X124.0078 Z-0.2043
 X124.0000 Z-0.2147
 X123.9844 Z-0.2374
 X123.9688 Z-0.2632
 X123.9531 Z-0.2932
 X123.9375 Z-0.3296
 X123.9062 Z-0.4858
 X123.8984 Z-5.0000
 X6.1250
 X6.0938 Z-0.4858
 X6.0859 Z-0.4130
 X6.0820 Z-0.3941
 X6.0781 Z-0.3782
 X6.0703 Z-0.3517
 X6.0664 Z-0.3402
 X6.0625 Z-0.3296
 X6.0469 Z-0.2932
 X6.0391 Z-0.2775
 X6.0312 Z-0.2632
 X6.0156 Z-0.2374
 X6.0078 Z-0.2257
 X6.0039 Z-0.2202
 X6.0000 Z-0.2147
 X5.9688 Z-0.1761
 X5.9531 Z-0.1594
 X5.9375 Z-0.1441
 X5.9062 Z-0.1170
 X5.8906 Z-0.1050
 X5.8828 Z-0.0994
 X5.8750 Z-0.0939
 X5.8438 Z-0.0742
 X5.8281 Z-0.0654
 X5.8125 Z-0.0572
 X5.7812 Z-0.0429
 X5.7656 Z-0.0366
 X5.7500 Z-0.0308
 X5.7188 Z-0.0209
 X5.6875 Z-0.0130
 X5.6562 Z-0.0071
 X5.6250 Z-0.0029
 X5.5000 Z0.0000
 X0.0000
 X-0.0312 Z-0.0010
 X-0.0469 Z-0.0022
 X-0.0625 Z-0.0039
 X-0.0938 Z-0.0089
 X-0.1094 Z-0.0121
 X-0.1172 Z-0.0139
 X-0.1250 Z-0.0159
 X-0.1562 Z-0.0250
 X-0.1719 Z-0.0305
 X-0.1875 Z-0.0365
 X-0.2188 Z-0.0504
 X-0.2344 Z-0.0583
 X-0.2422 Z-0.0626
 X-0.2500 Z-0.0670
 X-0.2812 Z-0.0866
 X-0.2969 Z-0.0977
 X-0.3125 Z-0.1097
 X-0.3438 Z-0.1369
 X-0.3594 Z-0.1524
 X-0.3750 Z-0.1693
 X-0.4062 Z-0.2085
 X-0.4219 Z-0.2316
 X-0.4375 Z-0.2579
 X-0.4688 Z-0.3260
 X-0.4844 Z-0.3760
 X-0.4922 Z-0.4120
 X-0.4961 Z-0.4376
 X-0.4980 Z-0.4558
 X-0.4990 Z-0.4688
 X-0.4995 Z-0.4779
 X-0.4998 Z-0.4844
 X-0.4999 Z-0.4890
 Z-0.4922
 X-0.5000 Z-0.4945
 Z-0.4961
 Z-10.0000
 X-12.5000
 Y12.2432
 X-0.5000
 X-0.4688 Z-0.3260
 X-0.4531 Z-0.2886
 X-0.4453 Z-0.2726
 X-0.4375 Z-0.2579
 X-0.4219 Z-0.2316
 X-0.4062 Z-0.2085
 X-0.3906 Z-0.1879
 X-0.3828 Z-0.1784
 X-0.3750 Z-0.1693
 X-0.3438 Z-0.1369
 X-0.3281 Z-0.1227
 X-0.3125 Z-0.1097
 X-0.2812 Z-0.0866
 X-0.2656 Z-0.0764
 X-0.2578 Z-0.0716
 X-0.2500 Z-0.0670
 X-0.2188 Z-0.0504
 X-0.2031 Z-0.0431
 X-0.1875 Z-0.0365
 X-0.1562 Z-0.0250
 X-0.1406 Z-0.0202
 X-0.1328 Z-0.0180
 X-0.1250 Z-0.0159
 X-0.0938 Z-0.0089
 X-0.0625 Z-0.0039
 X0.0000 Z0.0000
 X5.4375
 X5.4688 Z-0.0008
 X5.4844 Z-0.0019
 X5.5000 Z-0.0034
 X5.5312 Z-0.0078
 X5.5625 Z-0.0141
 X5.5938 Z-0.0222
 X5.6094 Z-0.0271
 X5.6172 Z-0.0297
 X5.6250 Z-0.0324
 X5.6562 Z-0.0448
 X5.6719 Z-0.0519
 X5.6875 Z-0.0595
 X5.7188 Z-0.0768
 X5.7344 Z-0.0866
 X5.7422 Z-0.0917
 X5.7500 Z-0.0971
 X5.7812 Z-0.1207
 X5.7969 Z-0.1340
 X5.8125 Z-0.1484
 X5.8281 Z-0.1641
 X5.8438 Z-0.1812
 X5.8594 Z-0.2001
 X5.8750 Z-0.2210
 X5.8906 Z-0.2445
 X5.9062 Z-0.2714
 X5.9219 Z-0.3029
 X5.9375 Z-0.3420
 X5.9531 Z-0.3969
 X5.9609 Z-0.4424
 X5.9648 Z-5.0000
 X124.0312
 X124.0469 Z-0.3969
 X124.0547 Z-0.3664
 X124.0586 Z-0.3536
 X124.0625 Z-0.3420
 X124.0781 Z-0.3029
 X124.0859 Z-0.2864
 X124.0938 Z-0.2714
 X124.1094 Z-0.2445
 X124.1172 Z-0.2324
 X124.1211 Z-0.2266
 X124.1250 Z-0.2210
 X124.1562 Z-0.1812
 X124.1719 Z-0.1641
 X124.1875 Z-0.1484
 X124.2188 Z-0.1207
 X124.2344 Z-0.1084
 X124.2422 Z-0.1026
 X124.2500 Z-0.0971
 X124.2812 Z-0.0768
 X124.2969 Z-0.0678
 X124.3125 Z-0.0595
 X124.3438 Z-0.0448
 X124.3594 Z-0.0384
 X124.3750 Z-0.0324
 X124.4062 Z-0.0222
 X124.4375 Z-0.0141
 X124.4688 Z-0.0078
 X124.4844 Z-0.0054
 X124.5000 Z-0.0034
 X124.6250 Z0.0000
 X130.0000
 X130.0312 Z-0.0010
 X130.0469 Z-0.0022
 X130.0625 Z-0.0039
 X130.0938 Z-0.0089
 X130.1094 Z-0.0121
 X130.1172 Z-0.0139
 X130.1250 Z-0.0159
 X130.1562 Z-0.0250
 X130.1719 Z-0.0305
 X130.1875 Z-0.0365
 X130.2188 Z-0.0504
 X130.2344 Z-0.0583
 X130.2422 Z-0.0626
 X130.2500 Z-0.0670
 X130.2812 Z-0.0866
 X130.2969 Z-0.0977
 X130.3125 Z-0.1097
 X130.3438 Z-0.1369
 X130.3594 Z-0.1524
 X130.3750 Z-0.1693
 X130.4062 Z-0.2085
 X130.4219 Z-0.2316
 X130.4375 Z-0.2579
 X130.4688 Z-0.3260
 X130.4844 Z-0.3760
 X130.4922 Z-0.4120
 X130.4961 Z-0.4376
 X130.4980 Z-0.4558
 X130.4990 Z-0.4688
 X130.4995 Z-0.4779
 X130.4998 Z-0.4844
 X130.4999 Z-0.4890
 Z-0.4922
 X130.5000 Z-0.4945
 Z-0.4961
 Z-10.0000
 X142.5000
 Y12.6419
 X130.5000
 X130.4688 Z-0.3260
 X130.4531 Z-0.2886
 X130.4453 Z-0.2726
 X130.4375 Z-0.2579
 X130.4219 Z-0.2316
 X130.4062 Z-0.2085
 X130.3906 Z-0.1879
 X130.3828 Z-0.1784
 X130.3750 Z-0.1693
 X130.3438 Z-0.1369
 X130.3281 Z-0.1227
 X130.3125 Z-0.1097
 X130.2812 Z-0.0866
 X130.2656 Z-0.0764
 X130.2578 Z-0.0716
 X130.2500 Z-0.0670
 X130.2188 Z-0.0504
 X130.2031 Z-0.0431
 X130.1875 Z-0.0365
 X130.1562 Z-0.0250
 X130.1406 Z-0.0202
 X130.1328 Z-0.0180
 X130.1250 Z-0.0159
 X130.0938 Z-0.0089
 X130.0625 Z-0.0039
 X130.0000 Z0.0000
 X124.7500
 X124.6875
 X124.6562 Z-0.0011
 X124.6406 Z-0.0023
 X124.6250 Z-0.0039
 X124.5938 Z-0.0086
 X124.5625 Z-0.0151
 X124.5312 Z-0.0236
 X124.5156 Z-0.0286
 X124.5078 Z-0.0313
 X124.5000 Z-0.0341
 X124.4688 Z-0.0468
 X124.4531 Z-0.0540
 X124.4375 Z-0.0619
 X124.4062 Z-0.0796
 X124.3906 Z-0.0895
 X124.3828 Z-0.0948
 X124.3750 Z-0.1003
 X124.3438 Z-0.1244
 X124.3281 Z-0.1380
 X124.3203 Z-0.1453
 X124.3125 Z-0.1528
 X124.2969 Z-0.1689
 X124.2812 Z-0.1865
 X124.2656 Z-0.2059
 X124.2500 Z-0.2276
 X124.2344 Z-0.2519
 X124.2188 Z-0.2799
 X124.2031 Z-0.3133
 X124.1875 Z-0.3556
 X124.1719 Z-0.4200
 X124.1680 Z-0.4478
 X124.1660 Z-0.4704
 X124.1650 Z-5.0000
 X5.8438
 X5.8281 Z-0.4200
 X5.8203 Z-0.3830
 X5.8164 Z-0.3685
 X5.8145 Z-0.3619
 X5.8125 Z-0.3556
 X5.7969 Z-0.3133
 X5.7891 Z-0.2958
 X5.7812 Z-0.2799
 X5.7656 Z-0.2519
 X5.7578 Z-0.2393
 X5.7539 Z-0.2334
 X5.7500 Z-0.2276
 X5.7188 Z-0.1865
 X5.7031 Z-0.1689
 X5.6875 Z-0.1528
 X5.6562 Z-0.1244
 X5.6406 Z-0.1119
 X5.6328 Z-0.1060
 X5.6250 Z-0.1003
 X5.5938 Z-0.0796
 X5.5781 Z-0.0704
 X5.5625 Z-0.0619
 X5.5312 Z-0.0468
 X5.5156 Z-0.0402
 X5.5000 Z-0.0341
 X5.4688 Z-0.0236
 X5.4375 Z-0.0151
 X5.4062 Z-0.0086
 X5.3906 Z-0.0060
 X5.3750 Z-0.0039
 X5.2500 Z0.0000
 X0.0000
 X-0.0312 Z-0.0010
 X-0.0469 Z-0.0022
 X-0.0625 Z-0.0039
 X-0.0938 Z-0.0089
 X-0.1094 Z-0.0121
 X-0.1172 Z-0.0139
 X-0.1250 Z-0.0159
 X-0.1562 Z-0.0250
 X-0.1719 Z-0.0305
 X-0.1875 Z-0.0365
 X-0.2188 Z-0.0504
 X-0.2344 Z-0.0583
 X-0.2422 Z-0.0626
 X-0.2500 Z-0.0670
 X-0.2812 Z-0.0866
 X-0.2969 Z-0.0977
 X-0.3125 Z-0.1097
 X-0.3438 Z-0.1369
 X-0.3594 Z-0.1524
 X-0.3750 Z-0.1693
 X-0.4062 Z-0.2085
 X-0.4219 Z-0.2316
 X-0.4375 Z-0.2579
 X-0.4688 Z-0.3260
 X-0.4844 Z-0.3760
 X-0.4922 Z-0.4120
 X-0.4961 Z-0.4376
 X-0.4980 Z-0.4558
 X-0.4990 Z-0.4688
 X-0.4995 Z-0.4779
 X-0.4998 Z-0.4844
 X-0.4999 Z-0.4890
 Z-0.4922
 X-0.5000 Z-0.4945
 Z-0.4961
 Z-10.0000
 X-12.5000
 Y13.0405
 X-0.5000
 X-0.4688 Z-0.3260
 X-0.4531 Z-0.2886
 X-0.4453 Z-0.2726
 X-0.4375 Z-0.2579
 X-0.4219 Z-0.2316
 X-0.4062 Z-0.2085
 X-0.3906 Z-0.1879
 X-0.3828 Z-0.1784
 X-0.3750 Z-0.1693
 X-0.3438 Z-0.1369
 X-0.3281 Z-0.1227
 X-0.3125 Z-0.1097
 X-0.2812 Z-0.0866
 X-0.2656 Z-0.0764
 X-0.2578 Z-0.0716
 X-0.2500 Z-0.0670
 X-0.2188 Z-0.0504
 X-0.2031 Z-0.0431
 X-0.1875 Z-0.0365
 X-0.1562 Z-0.0250
 X-0.1406 Z-0.0202
 X-0.1328 Z-0.0180
 X-0.1250 Z-0.0159
 X-0.0938 Z-0.0089
 X-0.0625 Z-0.0039
 X0.0000 Z0.0000
 X5.1875
 X5.2188 Z-0.0002
 X5.2344 Z-0.0008
 X5.2500 Z-0.0019
 X5.2812 Z-0.0056
 X5.2969 Z-0.0082
 X5.3125 Z-0.0114
 X5.3438 Z-0.0191
 X5.3594 Z-0.0239
 X5.3672 Z-0.0264
 X5.3750 Z-0.0291
 X5.4062 Z-0.0414
 X5.4219 Z-0.0485
 X5.4375 Z-0.0562
 X5.4688 Z-0.0737
 X5.4844 Z-0.0837
 X5.4922 Z-0.0890
 X5.5000 Z-0.0944
 X5.5312 Z-0.1188
 X5.5469 Z-0.1325
 X5.5547 Z-0.1398
 X5.5625 Z-0.1475
 X5.5781 Z-0.1638
 X5.5938 Z-0.1818
 X5.6094 Z-0.2016
 X5.6250 Z-0.2238
 X5.6406 Z-0.2488
 X5.6562 Z-0.2776
 X5.6719 Z-0.3122
 X5.6875 Z-0.3563
 X5.7031 Z-0.4257
 X5.7070 Z-0.4593
 X5.7090 Z-5.0000
 X124.2812
 X124.2969 Z-0.4257
 X124.3047 Z-0.3854
 X124.3086 Z-0.3700
 X124.3105 Z-0.3630
 X124.3125 Z-0.3563
 X124.3281 Z-0.3122
 X124.3359 Z-0.2940
 X124.3438 Z-0.2776
 X124.3594 Z-0.2488
 X124.3672 Z-0.2358
 X124.3711 Z-0.2297
 X124.3750 Z-0.2238
 X124.4062 Z-0.1818
 X124.4219 Z-0.1638
 X124.4375 Z-0.1475
 X124.4688 Z-0.1188
 X124.4844 Z-0.1061
 X124.4922 Z-0.1002
 X124.5000 Z-0.0944
 X124.5312 Z-0.0737
 X124.5469 Z-0.0646
 X124.5625 Z-0.0562
 X124.5938 Z-0.0414
 X124.6094 Z-0.0350
 X124.6172 Z-0.0320
 X124.6250 Z-0.0291
 X124.6562 Z-0.0191
 X124.6875 Z-0.0114
 X124.7188 Z-0.0056
 X124.7500 Z-0.0019
 X124.8750 Z0.0000
 X130.0000
 X130.0312 Z-0.0010
 X130.0469 Z-0.0022
 X130.0625 Z-0.0039
 X130.0938 Z-0.0089
 X130.1094 Z-0.0121
 X130.1172 Z-0.0139
 X130.1250 Z-0.0159
 X130.1562 Z-0.0250
 X130.1719 Z-0.0305
 X130.1875 Z-0.0365
 X130.2188 Z-0.0504
 X130.2344 Z-0.0583
 X130.2422 Z-0.0626
 X130.2500 Z-0.0670
 X130.2812 Z-0.0866
 X130.2969 Z-0.0977
 X130.3125 Z-0.1097
 X130.3438 Z-0.1369
 X130.3594 Z-0.1524
 X130.3750 Z-0.1693
 X130.4062 Z-0.2085
 X130.4219 Z-0.2316
 X130.4375 Z-0.2579
 X130.4688 Z-0.3260
 X130.4844 Z-0.3760
 X130.4922 Z-0.4120
 X130.4961 Z-0.4376
 X130.4980 Z-0.4558
 X130.4990 Z-0.4688
 X130.4995 Z-0.4779
 X130.4998 Z-0.4844
 X130.4999 Z-0.4890
 Z-0.4922
 X130.5000 Z-0.4945
 Z-0.4961
 Z-10.0000
 X142.5000
 Y13.4392
 X130.5000
 X130.4688 Z-0.3260
 X130.4531 Z-0.2886
 X130.4453 Z-0.2726
 X130.4375 Z-0.2579
 X130.4219 Z-0.2316
 X130.4062 Z-0.2085
 X130.3906 Z-0.1879
 X130.3828 Z-0.1784
 X130.3750 Z-0.1693
 X130.3438 Z-0.1369
 X130.3281 Z-0.1227
 X130.3125 Z-0.1097
 X130.2812 Z-0.0866
 X130.2656 Z-0.0764
 X130.2578 Z-0.0716
 X130.2500 Z-0.0670
 X130.2188 Z-0.0504
 X130.2031 Z-0.0431
 X130.1875 Z-0.0365
 X130.1562 Z-0.0250
 X130.1406 Z-0.0202
 X130.1328 Z-0.0180
 X130.1250 Z-0.0159
 X130.0938 Z-0.0089
 X130.0625 Z-0.0039
 X130.0000 Z0.0000
 X124.8438
 X124.8125 Z-0.0005
 X124.7812 Z-0.0030
 X124.7656 Z-0.0049
 X124.7578 Z-0.0061
 X124.7500 Z-0.0074
 X124.7188 Z-0.0138
 X124.7031 Z-0.0178
 X124.6875 Z-0.0223
 X124.6562 Z-0.0330
 X124.6406 Z-0.0393
 X124.6328 Z-0.0426
 X124.6250 Z-0.0461
 X124.5938 Z-0.0618
 X124.5781 Z-0.0708
 X124.5625 Z-0.0804
 X124.5312 Z-0.1023
 X124.5156 Z-0.1146
 X124.5078 Z-0.1212
 X124.5039 Z-0.1246
 X124.5000 Z-0.1280
 X124.4688 Z-0.1585
 X124.4531 Z-0.1759
 X124.4453 Z-0.1852
 X124.4375 Z-0.1951
 X124.4219 Z-0.2164
 X124.4062 Z-0.2404
 X124.3906 Z-0.2679
 X124.3750 Z-0.3004
 X124.3438 Z-0.3981
 X124.3359 Z-0.4479
 X124.3320 Z-5.0000
 X5.6875
 X5.6562 Z-0.3981
 X5.6484 Z-0.3661
 X5.6406 Z-0.3408
 X5.6328 Z-0.3193
 X5.6289 Z-0.3096
 X5.6270 Z-0.3049
 X5.6250 Z-0.3004
 X5.5938 Z-0.2404
 X5.5781 Z-0.2164
 X5.5703 Z-0.2055
 X5.5625 Z-0.1951
 X5.5469 Z-0.1759
 X5.5312 Z-0.1585
 X5.5156 Z-0.1426
 X5.5078 Z-0.1351
 X5.5000 Z-0.1280
 X5.4688 Z-0.1023
 X5.4531 Z-0.0909
 X5.4375 Z-0.0804
 X5.4062 Z-0.0618
 X5.3906 Z-0.0537
 X5.3828 Z-0.0498
 X5.3750 Z-0.0461
 X5.3438 Z-0.0330
 X5.3281 Z-0.0274
 X5.3125 Z-0.0223
 X5.2812 Z-0.0138
 X5.2656 Z-0.0103
 X5.2500 Z-0.0074
 X5.1250 Z0.0000
 X0.0000
 X-0.0312 Z-0.0010
 X-0.0469 Z-0.0022
 X-0.0625 Z-0.0039
 X-0.0938 Z-0.0089
 X-0.1094 Z-0.0121
 X-0.1172 Z-0.0139
 X-0.1250 Z-0.0159
 X-0.1562 Z-0.0250
 X-0.1719 Z-0.0305
 X-0.1875 Z-0.0365
 X-0.2188 Z-0.0504
 X-0.2344 Z-0.0583
 X-0.2422 Z-0.0626
 X-0.2500 Z-0.0670
 X-0.2812 Z-0.0866
 X-0.2969 Z-0.0977
 X-0.3125 Z-0.1097
 X-0.3438 Z-0.1369
 X-0.3594 Z-0.1524
 X-0.3750 Z-0.1693
 X-0.4062 Z-0.2085
 X-0.4219 Z-0.2316
 X-0.4375 Z-0.2579
 X-0.4688 Z-0.3260
 X-0.4844 Z-0.3760
 X-0.4922 Z-0.4120
 X-0.4961 Z-0.4376
 X-0.4980 Z-0.4558
 X-0.4990 Z-0.4688
 X-0.4995 Z-0.4779
 X-0.4998 Z-0.4844
 X-0.4999 Z-0.4890
 Z-0.4922
 X-0.5000 Z-0.4945
 Z-0.4961
 Z-10.0000
 X-12.5000
 Y13.8378
 X-0.5000
 X-0.4688 Z-0.3260
 X-0.4531 Z-0.2886
 X-0.4453 Z-0.2726
 X-0.4375 Z-0.2579
 X-0.4219 Z-0.2316
 X-0.4062 Z-0.2085
 X-0.3906 Z-0.1879
 X-0.3828 Z-0.1784
 X-0.3750 Z-0.1693
 X-0.3438 Z-0.1369
 X-0.3281 Z-0.1227
 X-0.3125 Z-0.1097
 X-0.2812 Z-0.0866
 X-0.2656 Z-0.0764
 X-0.2578 Z-0.0716
 X-0.2500 Z-0.0670
 X-0.2188 Z-0.0504
 X-0.2031 Z-0.0431
 X-0.1875 Z-0.0365
 X-0.1562 Z-0.0250
 X-0.1406 Z-0.0202
 X-0.1328 Z-0.0180
 X-0.1250 Z-0.0159
 X-0.0938 Z-0.0089
 X-0.0625 Z-0.0039
 X0.0000 Z0.0000
 X5.1094
 X5.1250
 X5.1562 Z-0.0012
 X5.1875 Z-0.0042
 X5.2188 Z-0.0093
 X5.2344 Z-0.0126
 X5.2422 Z-0.0145
 X5.2500 Z-0.0164
 X5.2812 Z-0.0257
 X5.2969 Z-0.0312
 X5.3125 Z-0.0372
 X5.3438 Z-0.0512
 X5.3594 Z-0.0592
 X5.3672 Z-0.0634
 X5.3750 Z-0.0678
 X5.4062 Z-0.0875
 X5.4219 Z-0.0986
 X5.4375 Z-0.1106
 X5.4688 Z-0.1378
 X5.4844 Z-0.1533
 X5.4922 Z-0.1615
 X5.5000 Z-0.1702
 X5.5312 Z-0.2094
 X5.5469 Z-0.2325
 X5.5625 Z-0.2587
 X5.5781 Z-0.2894
 X5.5938 Z-0.3267
 X5.6094 Z-0.3767
 X5.6172 Z-0.4127
 X5.6211 Z-0.4386
 X5.6230 Z-0.4571
 X5.6240 Z-0.4704
 X5.6245 Z-0.4803
 X5.6248 Z-0.4879
 X5.6249 Z-0.4951
 Z-5.0000
 X124.3750
 X124.4062 Z-0.3267
 X124.4219 Z-0.2894
 X124.4297 Z-0.2734
 X124.4375 Z-0.2587
 X124.4531 Z-0.2325
 X124.4688 Z-0.2094
 X124.4844 Z-0.1888
 X124.4922 Z-0.1792
 X124.5000 Z-0.1702
 X124.5312 Z-0.1378
 X124.5469 Z-0.1236
 X124.5625 Z-0.1106
 X124.5938 Z-0.0875
 X124.6094 Z-0.0773
 X124.6172 Z-0.0725
 X124.6250 Z-0.0678
 X124.6562 Z-0.0512
 X124.6719 Z-0.0439
 X124.6875 Z-0.0372
 X124.7188 Z-0.0257
 X124.7344 Z-0.0208
 X124.7422 Z-0.0185
 X124.7500 Z-0.0164
 X124.7812 Z-0.0093
 X124.8125 Z-0.0042
 X124.8750 Z-0.0000
 X125.0000
 X130.0000
 X130.0312 Z-0.0010
 X130.0469 Z-0.0022
 X130.0625 Z-0.0039
 X130.0938 Z-0.0089
 X130.1094 Z-0.0121
 X130.1172 Z-0.0139
 X130.1250 Z-0.0159
 X130.1562 Z-0.0250
 X130.1719 Z-0.0305
 X130.1875 Z-0.0365
 X130.2188 Z-0.0504
 X130.2344 Z-0.0583
 X130.2422 Z-0.0626
 X130.2500 Z-0.0670
 X130.2812 Z-0.0866
 X130.2969 Z-0.0977
 X130.3125 Z-0.1097
 X130.3438 Z-0.1369
 X130.3594 Z-0.1524
 X130.3750 Z-0.1693
 X130.4062 Z-0.2085
 X130.4219 Z-0.2316
 X130.4375 Z-0.2579
 X130.4688 Z-0.3260
 X130.4844 Z-0.3760
 X130.4922 Z-0.4120
 X130.4961 Z-0.4376
 X130.4980 Z-0.4558
 X130.4990 Z-0.4688
 X130.4995 Z-0.4779
 X130.4998 Z-0.4844
 X130.4999 Z-0.4890
 Z-0.4922
 X130.5000 Z-0.4945
 Z-0.4961
 Z-10.0000
 X142.5000
 Y14.2365
 X130.5000
 X130.4688 Z-0.3260
 X130.4531 Z-0.2886
 X130.4453 Z-0.2726
 X130.4375 Z-0.2579
 X130.4219 Z-0.2316
 X130.4062 Z-0.2085
 X130.3906 Z-0.1879
 X130.3828 Z-0.1784
 X130.3750 Z-0.1693
 X130.3438 Z-0.1369
 X130.3281 Z-0.1227
 X130.3125 Z-0.1097
 X130.2812 Z-0.0866
 X130.2656 Z-0.0764
 X130.2578 Z-0.0716
 X130.2500 Z-0.0670
 X130.2188 Z-0.0504
 X130.2031 Z-0.0431
 X130.1875 Z-0.0365
 X130.1562 Z-0.0250
 X130.1406 Z-0.0202
 X130.1328 Z-0.0180
 X130.1250 Z-0.0159
 X130.0938 Z-0.0089
 X130.0625 Z-0.0039
 X130.0000 Z0.0000
 X124.9375
 X124.9062 Z-0.0002
 X124.8906 Z-0.0008
 X124.8750 Z-0.0020
 X124.8438 Z-0.0057
 X124.8281 Z-0.0084
 X124.8125 Z-0.0115
 X124.7812 Z-0.0193
 X124.7656 Z-0.0241
 X124.7578 Z-0.0266
 X124.7500 Z-0.0294
 X124.7188 Z-0.0417
 X124.7031 Z-0.0488
 X124.6875 Z-0.0565
 X124.6562 Z-0.0742
 X124.6406 Z-0.0841
 X124.6328 Z-0.0894
 X124.6250 Z-0.0949
 X124.5938 Z-0.1194
 X124.5781 Z-0.1332
 X124.5703 Z-0.1405
 X124.5625 Z-0.1482
 X124.5469 Z-0.1646
 X124.5312 Z-0.1826
 X124.5156 Z-0.2026
 X124.5000 Z-0.2248
 X124.4844 Z-0.2500
 X124.4688 Z-0.2790
 X124.4531 Z-0.3139
 X124.4375 Z-0.3587
 X124.4219 Z-0.4305
 X124.4180 Z-0.4689
 X124.4160 Z-5.0000
 X5.5938
 X5.5781 Z-0.4305
 X5.5703 Z-0.3884
 X5.5664 Z-0.3726
 X5.5645 Z-0.3654
 X5.5625 Z-0.3587
 X5.5469 Z-0.3139
 X5.5391 Z-0.2956
 X5.5312 Z-0.2790
 X5.5156 Z-0.2500
 X5.5078 Z-0.2370
 X5.5039 Z-0.2308
 X5.5000 Z-0.2248
 X5.4688 Z-0.1826
 X5.4531 Z-0.1646
 X5.4375 Z-0.1482
 X5.4062 Z-0.1194
 X5.3906 Z-0.1067
 X5.3828 Z-0.1007
 X5.3750 Z-0.0949
 X5.3438 Z-0.0742
 X5.3281 Z-0.0650
 X5.3125 Z-0.0565
 X5.2812 Z-0.0417
 X5.2656 Z-0.0352
 X5.2578 Z-0.0322
 X5.2500 Z-0.0294
 X5.2188 Z-0.0193
 X5.1875 Z-0.0115
 X5.1562 Z-0.0057
 X5.1250 Z-0.0020
 X5.0000 Z0.0000
 X0.0000
 X-0.0312 Z-0.0010
 X-0.0469 Z-0.0022
 X-0.0625 Z-0.0039
 X-0.0938 Z-0.0089
 X-0.1094 Z-0.0121
 X-0.1172 Z-0.0139
 X-0.1250 Z-0.0159
 X-0.1562 Z-0.0250
 X-0.1719 Z-0.0305
 X-0.1875 Z-0.0365
 X-0.2188 Z-0.0504
 X-0.2344 Z-0.0583
 X-0.2422 Z-0.0626
 X-0.2500 Z-0.0670
 X-0.2812 Z-0.0866
 X-0.2969 Z-0.0977
 X-0.3125 Z-0.1097
 X-0.3438 Z-0.1369
 X-0.3594 Z-0.1524
 X-0.3750 Z-0.1693
 X-0.4062 Z-0.2085
 X-0.4219 Z-0.2316
 X-0.4375 Z-0.2579
 X-0.4688 Z-0.3260
 X-0.4844 Z-0.3760
 X-0.4922 Z-0.4120
 X-0.4961 Z-0.4376
 X-0.4980 Z-0.4558
 X-0.4990 Z-0.4688
 X-0.4995 Z-0.4779
 X-0.4998 Z-0.4844
 X-0.4999 Z-0.4890
 Z-0.4922
 X-0.5000 Z-0.4945
 Z-0.4961
 Z-10.0000
 X-12.5000
 Y14.6351
 X-0.5000
 X-0.4688 Z-0.3260
 X-0.4531 Z-0.2886
 X-0.4453 Z-0.2726
 X-0.4375 Z-0.2579
 X-0.4219 Z-0.2316
 X-0.4062 Z-0.2085
 X-0.3906 Z-0.1879
 X-0.3828 Z-0.1784
 X-0.3750 Z-0.1693
 X-0.3438 Z-0.1369
 X-0.3281 Z-0.1227
 X-0.3125 Z-0.1097
 X-0.2812 Z-0.0866
 X-0.2656 Z-0.0764
 X-0.2578 Z-0.0716
 X-0.2500 Z-0.0670
 X-0.2188 Z-0.0504
 X-0.2031 Z-0.0431
 X-0.1875 Z-0.0365
 X-0.1562 Z-0.0250
 X-0.1406 Z-0.0202
 X-0.1328 Z-0.0180
 X-0.1250 Z-0.0159
 X-0.0938 Z-0.0089
 X-0.0625 Z-0.0039
 X0.0000 Z0.0000
 X5.0312
 X5.0625 Z-0.0006
 X5.0938 Z-0.0030
 X5.1094 Z-0.0050
 X5.1172 Z-0.0062
 X5.1250 Z-0.0075
 X5.1562 Z-0.0139
 X5.1719 Z-0.0180
 X5.1875 Z-0.0225
 X5.2188 Z-0.0333
 X5.2344 Z-0.0396
 X5.2422 Z-0.0429
 X5.2500 Z-0.0465
 X5.2812 Z-0.0622
 X5.2969 Z-0.0712
 X5.3125 Z-0.0809
 X5.3438 Z-0.1028
 X5.3594 Z-0.1152
 X5.3672 Z-0.1218
 X5.3711 Z-0.1252
 X5.3750 Z-0.1286
 X5.4062 Z-0.1592
 X5.4219 Z-0.1767
 X5.4297 Z-0.1861
 X5.4375 Z-0.1960
 X5.4531 Z-0.2174
 X5.4688 Z-0.2416
 X5.4844 Z-0.2693
 X5.5000 Z-0.3020
 X5.5312 Z-0.4015
 X5.5391 Z-0.4550
 X5.5430 Z-5.0000
 X124.4375
 X124.4688 Z-0.4015
 X124.4766 Z-0.3686
 X124.4844 Z-0.3428
 X124.4922 Z-0.3211
 X124.4961 Z-0.3113
 X124.4980 Z-0.3066
 X124.5000 Z-0.3020
 X124.5312 Z-0.2416
 X124.5469 Z-0.2174
 X124.5547 Z-0.2064
 X124.5625 Z-0.1960
 X124.5781 Z-0.1767
 X124.5938 Z-0.1592
 X124.6094 Z-0.1433
 X124.6172 Z-0.1358
 X124.6250 Z-0.1286
 X124.6562 Z-0.1028
 X124.6719 Z-0.0914
 X124.6875 Z-0.0809
 X124.7188 Z-0.0622
 X124.7344 Z-0.0540
 X124.7422 Z-0.0502
 X124.7500 Z-0.0465
 X124.7812 Z-0.0333
 X124.7969 Z-0.0276
 X124.8125 Z-0.0225
 X124.8438 Z-0.0139
 X124.8594 Z-0.0105
 X124.8750 Z-0.0075
 X125.0000 Z0.0000
 X130.0000
 X130.0312 Z-0.0010
 X130.0469 Z-0.0022
 X130.0625 Z-0.0039
 X130.0938 Z-0.0089
 X130.1094 Z-0.0121
 X130.1172 Z-0.0139
 X130.1250 Z-0.0159
 X130.1562 Z-0.0250
 X130.1719 Z-0.0305
 X130.1875 Z-0.0365
 X130.2188 Z-0.0504
 X130.2344 Z-0.0583
 X130.2422 Z-0.0626
 X130.2500 Z-0.0670
 X130.2812 Z-0.0866
 X130.2969 Z-0.0977
 X130.3125 Z-0.1097
 X130.3438 Z-0.1369
 X130.3594 Z-0.1524
 X130.3750 Z-0.1693
 X130.4062 Z-0.2085
 X130.4219 Z-0.2316
 X130.4375 Z-0.2579
 X130.4688 Z-0.3260
 X130.4844 Z-0.3760
 X130.4922 Z-0.4120
 X130.4961 Z-0.4376
 X130.4980 Z-0.4558
 X130.4990 Z-0.4688
 X130.4995 Z-0.4779
 X130.4998 Z-0.4844
 X130.4999 Z-0.4890
 Z-0.4922
 X130.5000 Z-0.4945
 Z-0.4961
 Z-10.0000
 X142.5000
 Y15.0338
 X130.5000
 X130.4688 Z-0.3260
 X130.4531 Z-0.2886
 X130.4453 Z-0.2726
 X130.4375 Z-0.2579
 X130.4219 Z-0.2316
 X130.4062 Z-0.2085
 X130.3906 Z-0.1879
 X130.3828 Z-0.1784
 X130.3750 Z-0.1693
 X130.3438 Z-0.1369
 X130.3281 Z-0.1227
 X130.3125 Z-0.1097
 X130.2812 Z-0.0866
 X130.2656 Z-0.0764
 X130.2578 Z-0.0716
 X130.2500 Z-0.0670
 X130.2188 Z-0.0504
 X130.2031 Z-0.0431
 X130.1875 Z-0.0365
 X130.1562 Z-0.0250
 X130.1406 Z-0.0202
 X130.1328 Z-0.0180
 X130.1250 Z-0.0159
 X130.0938 Z-0.0089
 X130.0625 Z-0.0039
 X130.0000 Z0.0000
 X125.0000
 X124.9688 Z-0.0010
 X124.9531 Z-0.0022
 X124.9375 Z-0.0039
 X124.9062 Z-0.0089
 X124.8906 Z-0.0121
 X124.8828 Z-0.0139
 X124.8750 Z-0.0159
 X124.8438 Z-0.0250
 X124.8281 Z-0.0305
 X124.8125 Z-0.0365
 X124.7812 Z-0.0504
 X124.7656 Z-0.0583
 X124.7578 Z-0.0626
 X124.7500 Z-0.0670
 X124.7188 Z-0.0866
